!!!!SEGMENT: pl-sa--185-a-v-15--001-005_luna-georgius--missa-in-f-benedictus.krn
!!!cenid: 17xx:530
!!!COM: Luna, Georgius
!!!COM-rismID: pe41010079
!!!CDT:
!!!CNT:
!!!OPR: Missa in F
!!!OTL: Benedictus
!!!OMV: 005
!!!PDT:
!!!AGN: Sacred; Mass
!!!YEC: Copyright 2022 Narodowy Instytut Fryderyka Chopina (https://polishscores.org)
!!!YEM: License CC-BY-4.0 (https://creativecommons.org/licenses/by/4.0)
!!!SMS-siglum: PL-SA
!!!SMS-shelfmark: 185/A V 15
!!!SMS-shelfwork: 001-005 M
!!!SMS-variant:
!!!SMS-altvar:
!!!NIFC-rismSourceID: 1001035901
!!!NIFC-rismChildID: 1001035901
!!!NIFC-islandoraID: none
!!!URL-pdf-islandora:
!!!URL-scan: https://bc.bdsandomierz.pl/dlibra/publication/1522/edition/1490/content @EN{Scan in the Sandomierz Diocese Digital Library} @PL{Skany w portalu Cyfrowa Biblioteka Diecezjalna w Sandomierzu}
!!!IIIF:
!!!ONB-nifc: UWAGA: części Mszy: Kyrie, Gloria, Patrem, Sanctus, Benedictus, Agnus Dei
!!!AIN: 1 bass 2 cor 1 organ 2 soprn 2 violn
!!!key: F
!!!filter-modern: sic -sq | shed -e "s/yy//" |  shed -e "s/Xtuplet/tuplet/I" |  -shed -e "s/TX(.*):t=P:/tx$1:t=P:/LG" | shed -k -e "s/[<>]//g" | shed -k -e "s/LO:N:vis/LO:n:vis:/L" | shed -e "s/:rj/:RJ/L" | shed -e "s/^(\d+[\/\\]right)/$1yy/I;s/^(\d+[\/\\]left)/$1yy/I" | shed -e "s/LO:DY:(a|b|rj)/LO:dy:$1/L" | shed -e "s/-//B" | tie -s | autostem -r | modori -m | humtr -p
**kern	**fba	**dynam	**kern	**dynam	**kern	**dynam	**kern	**kern	**kern	**text	**kern	**dynam	**kern	**dynam
*part8	*	*	*part7	*	*part6	*	*part5	*part4	*part3	*	*part2	*	*part1	*
*staff8	*	*	*staff7	*	*staff6	*	*staff5	*staff4	*staff3	*	*staff2	*	*staff1	*
*ICklav	*	*	*ICstr	*	*ICstr	*	*ICvox	*ICvox	*ICvox	*	*ICbras	*	*ICbras	*
*Iorgan	*	*	*Ivioln	*	*Ivioln	*	*Ibass	*Isoprn	*Isoprn	*	*Icor	*	*Icor	*
*I"Organo.	*	*	*I"Violino Secundo.	*	*I"Violino Primo	*	*I"Baſso.	*I"Canto Secondo.	*I"Canto.	*	*I"Cornu Secondo ex F.	*	*I"Cornu Primo ex F.	*
*mI"Basso continuo	*	*	*mI"Violino II	*	*mI"Violino I	*	*mI"Basso	*mI"Soprano II	*mI"Soprano I	*	*mI"Corno II in F	*	*mI"Corno I in F	*
*I'org	*	*	*I'vl 2	*	*I'vl 1	*	*I'B	*I'S 2	*I'S 1	*	*I'cor 2 in F	*	*I'cor 1 in F	*
*mI'bc	*	*	*	*	*	*	*	*	*	*	*	*	*	*
*clefF4	*	*	*clefG2	*	*clefG2	*	*clefF4	*clefC1	*clefC1	*	*clefG2	*	*clefG2	*
*	*	*	*	*	*	*	*	*mclefG2	*mclefG2	*	*	*	*	*
*	*	*	*	*	*	*	*	*	*	*	*ITrd4c7	*	*ITrd4c7	*
*	*	*	*	*	*	*	*tacet	*tacet	*	*	*	*	*	*
*k[b-]	*	*	*k[b-]	*	*k[b-]	*	*k[b-]	*k[b-]	*k[b-]	*	*k[b-]	*	*k[b-]	*
*F:	*	*	*F:	*	*F:	*	*F:	*F:	*F:	*	*F:	*	*F:	*
*M3/8	*	*	*M3/8	*	*M3/8	*	*M3/8	*M3/8	*M3/8	*	*M3/8	*	*M3/8	*
=1	=1	=1	=1	=1	=1	=1	=1	=1	=1	=1	=1	=1	=1	=1
!!!OMD:
!!!OMD-mod: Andante
!LO:TX:rj:i:a:t=andante:mod=	!	!	!LO:TX:rj:i:a:t=andante:mod=	!	!LO:TX:rj:i:a:t=andante:mod=	!	!LO:TX:a:i:t=Benedic. Tacet	!LO:TX:a:i:t=Benedictus Tacet ||:mod=	!LO:TX:rj:i:a:t=andante:mod=	!	!LO:TX:rj:i:a:t=Andante:mod=	!	!LO:TX:rj:i:a:t=Andante:mod=	!
!	!	!	!LO:TX:rj:i:b:t=Benedictus:mod=	!	!LO:TX:rj:i:b:t=Benedictus:mod=	!	!	!	!LO:N:vis=00	!	!LO:TX:rj:i:b:t=Benedictus:mod=	!	!LO:TX:rj:i:b:t=Benedictus:mod=	!
16r	.	.	4.a/	.	4.cc\	.	4.ryy	4.ryy	1.r	.	4.a\	.	4.cc\	.
16FF/LL	.	.	.	.	.	.	.	.	.	.	.	.	.	.
16AA/	.	.	.	.	.	.	.	.	.	.	.	.	.	.
16C/	.	.	.	.	.	.	.	.	.	.	.	.	.	.
16F/	.	.	.	.	.	.	.	.	.	.	.	.	.	.
16A/JJ	.	.	.	.	.	.	.	.	.	.	.	.	.	.
=2	=2	=2	=2	=2	=2	=2	=2	=2	=2	=2	=2	=2	=2	=2
!LO:TX:a:t=P:problem=mixed beam	!	!	!	!	!	!	!	!	!	!	!	!	!	!
.	.	.	.	.	8qqcc/	.	.	.	.	.	.	.	.	.
16c\LL	7	.	4.g/	.	4.b-\	.	4.ryy	4.ryy	.	.	4.g\	.	4.b-\	.
16CC/	.	.	.	.	.	.	.	.	.	.	.	.	.	.
16EE/	.	.	.	.	.	.	.	.	.	.	.	.	.	.
16GG/	.	.	.	.	.	.	.	.	.	.	.	.	.	.
16C/	.	.	.	.	.	.	.	.	.	.	.	.	.	.
16E/JJ	.	.	.	.	.	.	.	.	.	.	.	.	.	.
=3	=3	=3	=3	=3	=3	=3	=3	=3	=3	=3	=3	=3	=3	=3
!	!	!	!LO:TX:a:t=P:problem=mixed beam	!	!	!	!	!	!	!	!	!	!	!
!	!	!	!LO:MO:mod=8fL(	!	!	!	!	!	!	!	!	!	!	!
4F\	3	.	8f/L	.	(8a\L	.	4.ryy	4.ryy	.	.	8f\	.	8a\	.
!	!	!	!LO:MO:mod=8dd	!	!	!	!	!	!	!	!	!	!	!
.	.	.	(8dd\	.	8ff\	.	.	.	.	.	8r	.	8r	.
8r	.	.	8cc\J)	.	8ee\J)	.	.	.	.	.	8r	.	8r	.
=4	=4	=4	=4	=4	=4	=4	=4	=4	=4	=4	=4	=4	=4	=4
!LO:TX:a:t=P:problem=mixed beam	!	!	!	!	!LO:MO:mod=8dd(	!	!	!	!	!	!	!	!	!
8B-\L	.	.	(8b-/	.	8dd\	.	4.ryy	4.ryy	.	.	4.r	.	4.r	.
.	.	.	.	.	8qqcc/	.	.	.	.	.	.	.	.	.
!	!	!	!	!	!LO:MO:mod=4b-)	!	!	!	!	!	!	!	!	!
8c\	6 4	.	4g/)	.	4b-\	.	.	.	.	.	.	.	.	.
8C/J	5 3	.	.	.	.	.	.	.	.	.	.	.	.	.
=5	=5	=5	=5	=5	=5	=5	=5	=5	=5	=5	=5	=5	=5	=5
*	*	*	*Xtuplet	*	*Xtuplet	*	*	*	*	*	*	*	*	*
!LO:TX:a:t=P:problem=mixed beam	!	!	!	!	!LO:MO:mod=24aLL(	!	!	!	!LO:N:vis=00	!	!	!	!	!
16F\LL	3_	.	(24f/LL	.	24a\LL	.	4.ryy	4.ryy	1.r	.	16r	.	16r	.
!	!	!	!	!	!LO:MO:mod=24b-	!	!	!	!	!	!	!	!	!
.	.	.	24g/	.	(24b-\	.	.	.	.	.	.	.	.	.
16FF/	.	.	.	.	.	.	.	.	.	.	16f\	.	16a\	.
.	.	.	24a/JJ)	.	24cc\JJ)	.	.	.	.	.	.	.	.	.
!	!	!	!	!	!	!	!	!	!	!	!LO:MO:mod=16aLL(	!	!	!
16AA/	X	.	4a/	.	4cc\	.	.	.	.	.	16a\LL	.	(16cc\LL	.
!	!	!	!	!	!	!	!	!	!	!	!LO:MO:mod=16f	!	!	!
16C/	.	.	.	.	.	.	.	.	.	.	(16f\	.	16a\	.
!	!	!	!	!	!	!	!	!	!	!	!	!	!LO:MO:mod=16cc	!
16F/	.	.	.	.	.	.	.	.	.	.	16a\	.	16cc\)	.
!	!	!	!	!	!	!	!	!	!	!	!	!	!LO:MO:mod=16aJJ)	!
16A/JJ	.	.	.	.	.	.	.	.	.	.	16f\JJ)	.	16a\JJ	.
=6	=6	=6	=6	=6	=6	=6	=6	=6	=6	=6	=6	=6	=6	=6
!LO:TX:a:t=P:problem=mixed beam	!	!	!	!	!	!	!	!	!	!	!	!	!	!
16c\LL	7_	.	(24e/LL	.	(24g/LL	.	4.ryy	4.ryy	.	.	16r	.	16r	.
.	.	.	24f/	.	24a/	.	.	.	.	.	.	.	.	.
16CC/	.	.	.	.	.	.	.	.	.	.	16c/	.	16g\	.
.	.	.	24g/JJ)	.	24b-/JJ)	.	.	.	.	.	.	.	.	.
!	!	!	!	!	!	!	!	!	!	!	!LO:MO:mod=16gLL(	!	!LO:MO:mod=16b-LL(	!
16EE/	X	.	4g/	.	4b-/T	.	.	.	.	.	16g\LL	.	16b-\LL	.
!	!	!	!	!	!	!	!	!	!	!	!LO:MO:mod=16c	!	!LO:MO:mod=16g	!
16GG/	.	.	.	.	.	.	.	.	.	.	(16c\	.	(16g\	.
!	!	!	!	!	!	!	!	!	!	!	!	!	!LO:MO:mod=16b-	!
16C/	.	.	.	.	.	.	.	.	.	.	16g\	.	16b-\)	.
!	!	!	!	!	!	!	!	!	!	!	!	!	!LO:MO:mod=16gJJ)	!
16E/JJ	.	.	.	.	.	.	.	.	.	.	16c\JJ)	.	16g\JJ	.
=7	=7	=7	=7	=7	=7	=7	=7	=7	=7	=7	=7	=7	=7	=7
!LO:TX:a:t=P:problem=mixed beam	!	!	!	!	!	!	!	!	!	!	!	!	!	!
8F\L	.	.	16.f/LL	.	16.a\LL	.	4.ryy	4.ryy	.	.	8f\	.	8a\	.
.	.	.	32a/JJk	.	32ff\JJk	.	.	.	.	.	.	.	.	.
!	!	!	!	!	!LO:MO:mod=24ffLL(	!	!	!	!	!	!	!	!	!
8r	.	.	(24a/LL	.	24ff\LL	.	.	.	.	.	8r	.	8r	.
!	!	!	!	!	!LO:MO:mod=24ee	!	!	!	!	!	!	!	!	!
.	.	.	24g/	.	(24ee\	.	.	.	.	.	.	.	.	.
.	.	.	24b-/JJ)	.	24dd\JJ)	.	.	.	.	.	.	.	.	.
!	!	!	!	!	!LO:MO:mod=24ccLL(	!	!	!	!	!	!	!	!	!
8FF/J	.	.	(24a/LL	.	24cc\LL	.	.	.	.	.	8f\	.	8a\	.
!	!	!	!	!	!LO:MO:mod=24b-	!	!	!	!	!	!	!	!	!
.	.	.	24g/	.	(24b-\	.	.	.	.	.	.	.	.	.
.	.	.	24f/JJ)	.	24a\JJ)	.	.	.	.	.	.	.	.	.
=8	=8	=8	=8	=8	=8	=8	=8	=8	=8	=8	=8	=8	=8	=8
!LO:TX:a:t=P:problem=mixed beam	!	!	!	!	!	!	!	!	!	!	!	!	!	!
.	.	.	.	.	8qqb-/	.	.	.	.	.	.	.	.	.
16C/LL	6 4	.	8f/L	.	8a/L	.	4.ryy	4.ryy	.	.	8f\L	.	8a\L	.
16c\	- 3	.	.	.	.	.	.	.	.	.	.	.	.	.
16B-\	.	.	8e/J	.	8g/J	.	.	.	.	.	8c\J	.	8g\J	.
16A\	.	.	.	.	.	.	.	.	.	.	.	.	.	.
16G\	.	.	8r	.	8r	.	.	.	.	.	8r	.	8r	.
16G\JJ	.	.	.	.	.	.	.	.	.	.	.	.	.	.
=9	=9	=9	=9	=9	=9	=9	=9	=9	=9	=9	=9	=9	=9	=9
!	!	!	!	!	!	!	!	!	!LO:N:vis=00	!	!LO:N:vis=00	!	!LO:N:vis=00	!
8F#X\L	-7	.	8a/L	.	16r	.	4.ryy	4.ryy	1.r	.	1.r	.	1.r	.
.	.	.	.	.	16ee-X\	.	.	.	.	.	.	.	.	.
8G\	3	.	8b-/	.	(24dd\LL	.	.	.	.	.	.	.	.	.
.	.	.	.	.	24cc\	.	.	.	.	.	.	.	.	.
.	.	.	.	.	24b-\JJ)	.	.	.	.	.	.	.	.	.
8A\J	6	.	8cc/J	.	(24a/LL	.	.	.	.	.	.	.	.	.
.	.	.	.	.	24g/	.	.	.	.	.	.	.	.	.
.	.	.	.	.	24f#X/JJ)	.	.	.	.	.	.	.	.	.
!LO:LB:g=original	!	!	!	!	!LO:LB:g=original	!	!	!	!	!	!	!	!	!
=10	=10	=10	=10	=10	=10	=10	=10	=10	=10	=10	=10	=10	=10	=10
!	!	!LO:DY:ed=brack	!	!	!	!	!	!	!	!	!	!	!	!
!	!	!LO:MO:null:mod=p	!	!LO:DY:a:t=p.	!LO:TX:a:t=P:problem=mixed beam	!LO:MO:null:mod=p	!	!	!	!	!	!	!	!
8B-\L	6	.	(8dd\L	p	16.g/LL	.	4.ryy	4.ryy	.	.	.	.	.	.
.	.	.	.	.	8qqee/	.	.	.	.	.	.	.	.	.
.	.	.	.	.	32ff#X\JJk	.	.	.	.	.	.	.	.	.
!	!	!	!	!	!LO:MO:mod=8ff#L(	!LO:DY:a:rj:t=p.	!	!	!	!	!	!	!	!
!	!	!	!	!	!	!LO:MO:mod=.	!	!	!	!	!	!	!	!
8A\	6	.	8cc\	.	8ff#\L	p	.	.	.	.	.	.	.	.
!	!	!	!	!	!LO:MO:mod=8ggJ)	!	!	!	!	!	!	!	!	!
8G\J	.	.	8b-\J)	.	8gg\J	.	.	.	.	.	.	.	.	.
=11	=11	=11	=11	=11	=11	=11	=11	=11	=11	=11	=11	=11	=11	=11
!	!	!LO:DY:ed=brack	!	!	!	!	!	!	!	!	!	!	!	!
!	!	!LO:MO:null:mod=f	!	!LO:DY:a:t=f.	!	!	!	!	!	!	!	!	!	!
8E\L	7	.	8g/L	f	16r	.	4.ryy	4.ryy	.	.	.	.	.	.
!	!	!	!	!	!	!LO:DY:ed=brack	!	!	!	!	!	!	!	!
!	!	!	!	!	!	!LO:MO:null:mod=f	!	!	!	!	!	!	!	!
.	.	.	.	.	16dd\	.	.	.	.	.	.	.	.	.
!	!	!	!	!	!LO:MO:mod=24ccLL(	!	!	!	!	!	!	!	!	!
8Fn\	5	.	8a/	.	24cc\LL	.	.	.	.	.	.	.	.	.
!	!	!	!	!	!LO:MO:mod=24b-	!	!	!	!	!	!	!	!	!
.	.	.	.	.	(24b-\	.	.	.	.	.	.	.	.	.
.	.	.	.	.	24a\JJ)	.	.	.	.	.	.	.	.	.
8G\J	6	.	8b-/J	.	(24g/LL	.	.	.	.	.	.	.	.	.
.	.	.	.	.	24f/	.	.	.	.	.	.	.	.	.
.	.	.	.	.	24en/JJ)	.	.	.	.	.	.	.	.	.
=12	=12	=12	=12	=12	=12	=12	=12	=12	=12	=12	=12	=12	=12	=12
!	!	!LO:DY:ed=brack	!	!	!	!LO:DY:ed=brack	!	!	!	!	!	!	!	!
!	!	!LO:MO:null:mod=p	!	!LO:DY:a	!LO:TX:a:t=P:problem=mixed beam	!LO:MO:null:mod=p	!	!	!	!	!	!	!	!
8A\L	6	.	(8cc\L	p	16.f/LL	.	4.ryy	4.ryy	.	.	.	.	.	.
.	.	.	.	.	32ee\JJk	.	.	.	.	.	.	.	.	.
8G\	6	.	8b-\	.	(8ee\L	.	.	.	.	.	.	.	.	.
8F\J	.	.	8a\J)	.	8ff\J)	.	.	.	.	.	.	.	.	.
!	!	!	!LO:LB:g=original	!	!	!	!	!	!	!	!	!	!	!
=13	=13	=13	=13	=13	=13	=13	=13	=13	=13	=13	=13	=13	=13	=13
*	*	*	*	*	*	*	*	*	*	*	*Xtuplet	*	*	*
!	!	!	!	!LO:DY:ed=brack	!	!LO:DY:a	!	!	!	!	!	!	!	!
!	!	!	!LO:MO:mod=24eLL(	!LO:MO:null:mod=f	!LO:MO:mod=24gLL(	!LO:MO:mod=f	!	!	!LO:N:vis=00	!	!LO:MO:mod=24cLL(	!	!LO:MO:mod=24gLL(	!
16r	.	.	24e/LL	.	24g/LL	p	4.ryy	4.ryy	1.r	.	24c\LL	.	16g\LL	.
!	!	!LO:DY:ed=brack	!	!	!	!	!	!	!	!	!	!	!	!
!	!	!LO:MO:null:mod=f	!LO:MO:mod=24f	!	!	!	!	!	!	!	!LO:MO:mod=24f	!	!LO:MO:null:mod=24a	!
.	.	.	(24f/	.	24a/	.	.	.	.	.	(24f\	.	.	.
!	!	!	!	!	!	!	!	!	!	!	!	!	!LO:MO:mod=.	!
16CC/LL	7_	.	.	.	.	.	.	.	.	.	.	.	(16a\	.
!	!	!	!	!	!LO:MO:mod=24b-JJ)	!	!	!	!	!	!	!	!LO:MO:null:mod=24b-JJ)	!
.	.	.	24g/JJ)	.	24b-/JJ	.	.	.	.	.	24g\JJ)	.	.	.
!	!	!	!	!	!	!	!	!	!	!	!LO:MO:mod=4gT	!	!LO:MO:mod=4b-T	!
16EE/	.	.	4g/	.	4b-/T	.	.	.	.	.	8g\	.	16b-\J)	.
!	!	!	!	!	!	!	!	!	!	!	!	!	!LO:MO:mod=.	!
16GG/	X	.	.	.	.	.	.	.	.	.	.	.	8.b-\JT	.
!	!	!	!	!	!	!	!	!	!	!	!LO:MO:mod=.	!	!	!
16C/	.	.	.	.	.	.	.	.	.	.	8r	.	.	.
16E/JJ	.	.	.	.	.	.	.	.	.	.	.	.	.	.
=14	=14	=14	=14	=14	=14	=14	=14	=14	=14	=14	=14	=14	=14	=14
!	!	!LO:DY:ed=brack	!	!	!	!LO:DY:ed=brack	!	!	!	!	!	!LO:DY:ed=brack	!	!LO:DY:ed=brack
!	!	!LO:MO:null:mod=p	!	!LO:DY:a:rj:t=p.	!LO:TX:a:t=P:problem=mixed beam	!LO:MO:null:mod=p	!	!	!	!	!	!LO:MO:null:mod=p	!	!LO:MO:null:mod=p
4F\	3	.	16f/LL	p	16a/LL	.	4.ryy	4.ryy	.	.	8f\	.	8a\	.
.	.	.	16cc/	.	16aa\	.	.	.	.	.	.	.	.	.
!	!	!	!	!	!LO:MO:mod=16gg(	!	!	!	!	!	!	!	!	!
.	.	.	(16b-/	.	16gg\	.	.	.	.	.	8r	.	8r	.
!	!	!	!	!	!LO:MO:mod=16ff)	!	!	!	!	!	!	!	!	!
.	.	.	16a/)	.	16ff\	.	.	.	.	.	.	.	.	.
!	!	!	!LO:MO:mod=16g(	!	!LO:MO:mod=16ee(	!	!	!	!	!	!	!	!	!
8r	.	.	16g/	.	16ee\	.	.	.	.	.	8r	.	8r	.
!	!	!	!LO:MO:mod=16aJJ)	!	!LO:MO:mod=16ffJJ)	!	!	!	!	!	!	!	!	!
.	.	.	16a/JJ	.	16ff\JJ	.	.	.	.	.	.	.	.	.
=15	=15	=15	=15	=15	=15	=15	=15	=15	=15	=15	=15	=15	=15	=15
!	!	!	!	!	!	!	!	!	!	!	!	!LO:DY:ed=brack	!	!LO:DY:ed=brack
!	!	!	!LO:MO:mod=16b-LL(	!LO:DY:a:rj:t=f.	!LO:MO:mod=24ggLL(	!LO:DY:a:rj:t=f.	!	!	!	!	!	!LO:MO:null:mod=f	!	!LO:MO:null:mod=f
16r	.	.	16b-/LL	f	24gg\LL	f	4.ryy	4.ryy	.	.	8c/	.	8g\	.
!	!	!LO:DY:ed=brack	!	!	!	!	!	!	!	!	!	!	!	!
!	!	!LO:MO:null:mod=f	!	!	!	!	!	!	!	!	!	!	!	!
.	.	.	.	.	24ee\	.	.	.	.	.	.	.	.	.
!	!	!	!LO:MO:mod=16g)	!	!	!	!	!	!	!	!	!	!	!
16C\LL	7 3	.	16g/	.	.	.	.	.	.	.	.	.	.	.
!	!	!	!	!	!LO:MO:mod=24b-JJ)	!	!	!	!	!	!	!	!	!
.	.	.	.	.	24b-\JJ	.	.	.	.	.	.	.	.	.
16D\	x 3	.	(16f/	.	4b-T\	.	.	.	.	.	8r	.	8r	.
16C\	x 3	.	16g/)	.	.	.	.	.	.	.	.	.	.	.
!	!	!	!LO:MO:mod=16f(	!	!	!	!	!	!	!	!	!	!	!
16D\	7 3	.	16f/	.	.	.	.	.	.	.	8r	.	8r	.
!	!	!	!LO:MO:mod=16gJJ)	!	!	!	!	!	!	!	!	!	!	!
16E\JJ	x 3	.	16g/JJ	.	.	.	.	.	.	.	.	.	.	.
!	!	!	!	!	!	!	!	!	!	!	!LO:LB:g=original	!	!	!
=16	=16	=16	=16	=16	=16	=16	=16	=16	=16	=16	=16	=16	=16	=16
!	!	!LO:DY:ed=brack	!	!LO:DY:ed=brack	!	!	!	!	!	!	!	!LO:DY:ed=brack	!	!LO:DY:ed=brack
!	!	!LO:MO:null:mod=p	!	!LO:MO:null:mod=p	!	!LO:DY:a:rj:t=p.	!	!	!	!	!	!LO:MO:null:mod=p	!LO:SIC:v:s=8a	!LO:MO:null:mod=p
4F\	.	.	16c/LL	.	16a/LL	p	4.ryy	4.ryy	.	.	8F/	.	8g\	.
!	!	!	!LO:MO:mod=16c	!	!	!	!	!	!	!	!	!	!	!
.	.	.	(16c/	.	16a/	.	.	.	.	.	.	.	.	.
!	!	!	!LO:MO:mod=16B-(	!	!	!	!	!	!	!	!	!	!	!
.	.	.	16B-/	.	(16g/	.	.	.	.	.	8r	.	8r	.
.	.	.	16A/)	.	16f/)	.	.	.	.	.	.	.	.	.
!	!	!	!LO:MO:mod=16G(	!	!LO:MO:mod=16e(	!	!	!	!	!	!	!	!	!
8r	.	.	16G/	.	16e/	.	.	.	.	.	8r	.	8r	.
!	!	!	!LO:MO:mod=16AJJ)	!	!LO:MO:mod=16fJJ)	!	!	!	!	!	!	!	!	!
.	.	.	16A/JJ	.	16f/JJ	.	.	.	.	.	.	.	.	.
!	!	!	!	!	!	!	!	!	!	!	!	!	!LO:PB:g=original	!
=17	=17	=17	=17	=17	=17	=17	=17	=17	=17	=17	=17	=17	=17	=17
!	!	!LO:DY:ed=brack	!	!	!	!	!	!	!	!	!	!LO:DY:ed=brack	!	!LO:DY:ed=brack
!	!	!LO:MO:null:mod=f	!	!LO:DY:a:rj	!	!LO:DY:a:rj:t=f.	!	!	!LO:N:vis=00	!	!	!LO:MO:null:mod=f	!	!LO:MO:null:mod=f
8B-\L	.	.	8dd\	f	8dd\	f	4.ryy	4.ryy	1.r	.	8f\	.	8f\	.
!	!	!	!	!	!LO:MO:mod=24bb-LL(	!	!	!	!	!	!	!	!	!
8B-\	.	.	(24bb-\LL	.	24bb-\LL	.	.	.	.	.	8r	.	8r	.
.	.	.	24aa\	.	24aa\	.	.	.	.	.	.	.	.	.
!	!	!	!	!	!LO:MO:mod=24ggJJ)	!	!	!	!	!	!	!	!	!
.	.	.	24gg\JJ)	.	24gg\JJ	.	.	.	.	.	.	.	.	.
!	!	!	!	!	!LO:MO:mod=24ffLL(	!	!	!	!	!	!	!	!	!
8B-\J	.	.	(24ff\LL	.	24ff\LL	.	.	.	.	.	8r	.	8r	.
!	!	!	!	!	!LO:MO:mod=24ee	!	!	!	!	!	!	!	!	!
.	.	.	24ee\	.	(24ee\	.	.	.	.	.	.	.	.	.
.	.	.	24dd\JJ)	.	24dd\JJ)	.	.	.	.	.	.	.	.	.
=18	=18	=18	=18	=18	=18	=18	=18	=18	=18	=18	=18	=18	=18	=18
!	!	!	!	!	!LO:MO:mod=24ccLL(	!	!	!	!	!	!	!	!	!
8A\L	6	.	(24cc\LL	.	24cc\LL	.	4.ryy	4.ryy	.	.	8r	.	8r	.
!	!	!	!	!	!LO:MO:mod=24dd	!	!	!	!	!	!	!	!	!
.	.	.	24dd\	.	(24dd\	.	.	.	.	.	.	.	.	.
.	.	.	24ee\JJ)	.	24ee\JJ)	.	.	.	.	.	.	.	.	.
!	!	!	!	!	!LO:LB:g=original	!	!	!	!	!	!	!	!	!
!	!	!	!	!	!LO:MO:mod=24ffLL(	!	!	!	!	!	!	!	!	!
8A\	6	.	(24ff\LL	.	24ff\LL	.	.	.	.	.	8r	.	8r	.
!	!	!	!	!	!LO:MO:mod=24gg	!	!	!	!	!	!	!	!	!
.	.	.	24gg\	.	(24gg\	.	.	.	.	.	.	.	.	.
.	.	.	24aa\JJ)	.	24aa\JJ)	.	.	.	.	.	.	.	.	.
.	.	.	.	.	8qqcc/	.	.	.	.	.	.	.	.	.
8G\J	.	.	8b-\	.	8b-\	.	.	.	.	.	8g\	.	8b-\	.
=19	=19	=19	=19	=19	=19	=19	=19	=19	=19	=19	=19	=19	=19	=19
!LO:TX:a:t=P:problem=mixed beam	!	!	!	!	!	!	!	!	!	!	!	!	!	!
8F\L	.	.	(24a/LL	.	(24a/LL	.	4.ryy	4.ryy	.	.	8f\	.	8a\	.
.	.	.	24g/	.	24g/	.	.	.	.	.	.	.	.	.
.	.	.	24f/JJ)	.	24f/JJ)	.	.	.	.	.	.	.	.	.
8c\	4	.	4g/	.	4gT/	.	.	.	.	.	4c/	.	4g\	.
8C/J	3	.	.	.	.	.	.	.	.	.	.	.	.	.
=20	=20	=20	=20	=20	=20	=20	=20	=20	=20	=20	=20	=20	=20	=20
!	!	!	!LO:TX:a:t=P:problem=mixed beam	!	!LO:TX:a:t=P:problem=mixed beam	!	!	!	!	!	!	!	!	!
!	!	!	!LO:MO:mod=16.fLL	!	!	!	!	!	!	!	!	!	!	!
4F\	.	.	16f/LL	.	16.f/LL	.	4.ryy	4.ryy	.	.	8A/	.	8f\	.
!	!	!	!LO:MO:mod=.	!	!	!	!	!	!	!	!	!	!	!
.	.	.	16aa\JJ	.	.	.	.	.	.	.	.	.	.	.
!	!	!	!LO:MO:null:mod=32aaJJ	!	!	!	!	!	!	!	!	!	!	!
.	.	.	.	.	32aa\JJk	.	.	.	.	.	.	.	.	.
!	!	!	!LO:MO:mod=24aaLL(	!	!LO:MO:mod=24aaLL(	!	!	!	!	!	!	!	!	!
.	.	.	24aa\LL	.	24aa\LL	.	.	.	.	.	4r	.	8r	.
!	!	!	!	!	!LO:MO:mod=24gg	!	!	!	!	!	!	!	!	!
.	.	.	24gg\	.	(24gg\	.	.	.	.	.	.	.	.	.
!	!	!	!LO:MO:mod=24ffJJ)	!	!	!	!	!	!	!	!	!	!	!
.	.	.	24ff\JJ	.	24ff\JJ)	.	.	.	.	.	.	.	.	.
!	!	!	!LO:MO:mod=24eeLL(	!	!LO:MO:mod=24eeLL(	!	!	!	!	!	!	!	!	!
8r	.	.	24ee\LL	.	24ee\LL	.	.	.	.	.	.	.	8r	.
!	!	!	!	!	!LO:MO:mod=24dd	!	!	!	!	!	!	!	!	!
.	.	.	24dd\	.	(24dd\	.	.	.	.	.	.	.	.	.
!	!	!	!LO:MO:mod=24ccJJ)	!	!	!	!	!	!	!	!	!	!	!
.	.	.	24cc\JJ	.	24cc\JJ)	.	.	.	.	.	.	.	.	.
!	!	!	!LO:LB:g=original	!	!	!	!	!	!	!	!	!	!	!
=21	=21	=21	=21	=21	=21	=21	=21	=21	=21	=21	=21	=21	=21	=21
.	.	.	16qqb-/LL	.	16qqb-/LL	.	.	.	.	.	.	.	.	.
!LO:TX:a:t=P:problem=mixed beam	!	!	!	!	!	!	!	!	!	!	!	!	!	!
.	.	.	16qqcc/JJ	.	16qqcc/JJ	.	.	.	.	.	.	.	.	.
!	!	!	!	!	!	!	!	!	!LO:N:vis=00	!	!	!	!	!
8B-\L	.	.	8dd\	.	8dd\	.	4.ryy	4.ryy	1.r	.	8b-\	.	8dd\	.
.	.	.	8qqcc/	.	8qqcc/	.	.	.	.	.	.	.	.	.
8c\	6 4	.	4b-\	.	4b-\	.	.	.	.	.	4g\T	.	4b-\T	.
8C\J	5 3	.	.	.	.	.	.	.	.	.	.	.	.	.
!LO:LB:g=original	!	!	!	!	!	!	!	!	!	!	!	!	!	!
=22	=22	=22	=22	=22	=22	=22	=22	=22	=22	=22	=22	=22	=22	=22
!	!	!	!LO:TX:a:t=P:problem=mixed beam	!	!LO:TX:a:t=P:problem=mixed beam	!	!	!	!	!	!	!	!	!
8D/	.	.	16.f/LL	.	16.f/LL	.	4.ryy	4.ryy	.	.	8f\	.	8a\	.
.	.	.	32aa\JJk	.	32aa\JJk	.	.	.	.	.	.	.	.	.
!	!	!	!LO:MO:mod=24aaLL(	!	!	!	!	!	!	!	!	!	!	!
8r	.	.	24aa\LL	.	(24aa\LL	.	.	.	.	.	8r	.	8r	.
!	!	!	!LO:MO:mod=24gg	!	!	!	!	!	!	!	!	!	!	!
.	.	.	(24gg\	.	24gg\	.	.	.	.	.	.	.	.	.
.	.	.	24ff\JJ)	.	24ff\JJ)	.	.	.	.	.	.	.	.	.
8r	.	.	(24ee\LL	.	(24ee\LL	.	.	.	.	.	8r	.	8r	.
.	.	.	24dd\	.	24dd\	.	.	.	.	.	.	.	.	.
.	.	.	24cc\JJ)	.	24cc\JJ)	.	.	.	.	.	.	.	.	.
=23	=23	=23	=23	=23	=23	=23	=23	=23	=23	=23	=23	=23	=23	=23
8BB-/L	x 6	.	8b-/	.	8b-/	.	4.ryy	4.ryy	.	.	8g\L	.	8b-\	.
.	.	.	8qqa/	.	8qqa/	.	.	.	.	.	.	.	.	.
8C/	6 4	.	4g/	.	4g/	.	.	.	.	.	(8f\	.	4g\T	.
8CC/J	5 3	.	.	.	.	.	.	.	.	.	8c\J)	.	.	.
=24	=24	=24	=24	=24	=24	=24	=24	=24	=24	=24	=24	=24	=24	=24
!	!	!	!	!	!	!	!	!	!	!	!	!	!LO:MO:mod=4f	!
4.FF;/	.	.	16.f/LL	.	16.f/LL	.	4.ryy	4.ryy	.	.	4A/	.	8f\	.
.	.	.	32c/JJk	.	32c/JJk	.	.	.	.	.	.	.	.	.
!	!	!	!LO:MO:null:mod=8qqB-@	!	!	!	!	!	!	!	!	!	!	!
.	.	.	.	.	8qqB-/	.	.	.	.	.	.	.	.	.
!	!	!	!	!	!	!	!	!	!	!	!	!	!LO:MO:mod=.	!
.	.	.	4A;/	.	4A;/	.	.	.	.	.	.	.	8r	.
.	.	.	.	.	.	.	.	.	.	.	8r	.	8r	.
!	!	!	!	!	!	!	!	!	!LO:MO:mod==25||	!	!LO:MO:mod==25||	!	!LO:MO:mod==25||	!
=25||	=25||	=25||	=25||	=25||	=25||	=25||	=25||	=25||	=25	=25	=25	=25	=25	=25
!	!	!LO:DY:a:t=p.	!	!LO:DY:a:rj:t=p.	!	!LO:DY:a:rj:t=p.	!	!	!	!	!LO:N:vis=00	!	!LO:N:vis=00	!
16r	.	p	4.a/	p	4.cc\	p	4.ryy	4.ryy	4.cc\	Be-	1.r	.	1.r	.
16FF/LL	.	.	.	.	.	.	.	.	.	.	.	.	.	.
16AA/	.	.	.	.	.	.	.	.	.	.	.	.	.	.
16C/	.	.	.	.	.	.	.	.	.	.	.	.	.	.
16F/	.	.	.	.	.	.	.	.	.	.	.	.	.	.
16A/JJ	.	.	.	.	.	.	.	.	.	.	.	.	.	.
=26	=26	=26	=26	=26	=26	=26	=26	=26	=26	=26	=26	=26	=26	=26
!LO:TX:a:t=P:problem=mixed beam	!	!	!	!	!	!	!	!	!	!	!	!	!	!
.	.	.	.	.	.	.	.	.	8qqcc/	.	.	.	.	.
16c\LL	.	.	4.g/	.	4.b-\	.	4.ryy	4.ryy	4.b-\	-ne-	.	.	.	.
16CC/	.	.	.	.	.	.	.	.	.	.	.	.	.	.
16EE/	.	.	.	.	.	.	.	.	.	.	.	.	.	.
16GG/	.	.	.	.	.	.	.	.	.	.	.	.	.	.
16C/	.	.	.	.	.	.	.	.	.	.	.	.	.	.
16E/JJ	.	.	.	.	.	.	.	.	.	.	.	.	.	.
=27	=27	=27	=27	=27	=27	=27	=27	=27	=27	=27	=27	=27	=27	=27
!	!	!	!LO:TX:a:t=P:problem=mixed beam	!	!	!	!	!	!	!	!	!	!	!
!	!	!	!LO:MO:mod=8fL(	!	!LO:MO:mod=8aL(	!	!	!	!	!	!	!	!	!
4F\	.	.	8f/L	.	8a\L	.	4.ryy	4.ryy	(8a\L	-dic-	.	.	.	.
!	!	!	!LO:MO:mod=8dd	!	!LO:MO:mod=8ff	!	!	!	!	!	!	!	!	!
.	.	.	(8dd\	.	(8ff\	.	.	.	8ff\J)	.	.	.	.	.
8r	.	.	8cc\J)	.	8ee\J)	.	.	.	8ee\	-tus	.	.	.	.
!	!	!	!	!	!LO:LB:g=original	!	!	!	!	!	!	!	!	!
=28	=28	=28	=28	=28	=28	=28	=28	=28	=28	=28	=28	=28	=28	=28
!LO:TX:a:t=P:problem=mixed beam	!	!	!LO:MO:mod=8b-(	!	!LO:MO:mod=8dd(	!	!	!	!	!	!	!	!	!
8B-\L	3	.	8b-/	.	8dd\	.	4.ryy	4.ryy	8dd\	qui	.	.	.	.
.	.	.	.	.	8qqcc/	.	.	.	8qqcc/	.	.	.	.	.
!	!	!	!LO:MO:mod=4g)	!	!LO:MO:mod=4b-)	!	!	!	!	!	!	!	!	!
8c\	6 4	.	4g/	.	4b-\	.	.	.	4b-\	ve-	.	.	.	.
8C/J	5 3	.	.	.	.	.	.	.	.	.	.	.	.	.
=29	=29	=29	=29	=29	=29	=29	=29	=29	=29	=29	=29	=29	=29	=29
!LO:TX:a:t=P:problem=mixed beam	!	!	!	!	!LO:MO:mod=24aLL(	!	!	!	!	!	!LO:N:vis=0	!	!LO:N:vis=0	!
16F\LL	3_	.	(24f/LL	.	24a\LL	.	4.ryy	4.ryy	(16a\LL	.	2.r	.	2.r	.
!	!	!	!	!	!LO:MO:mod=24b-	!	!	!	!	!	!	!	!	!
.	.	.	24g/	.	(24b-\	.	.	.	.	.	.	.	.	.
16FF/	.	.	.	.	.	.	.	.	16b-\JJ)	.	.	.	.	.
.	.	.	24a/JJ)	.	24cc\JJ)	.	.	.	.	.	.	.	.	.
16AA/	X	.	4a/	.	4ccT\	.	.	.	8cc\	-nit	.	.	.	.
16C/	.	.	.	.	.	.	.	.	.	.	.	.	.	.
16F/	.	.	.	.	.	.	.	.	16r	.	.	.	.	.
16A/JJ	.	.	.	.	.	.	.	.	16cc\	qui	.	.	.	.
=30	=30	=30	=30	=30	=30	=30	=30	=30	=30	=30	=30	=30	=30	=30
!LO:TX:a:t=P:problem=mixed beam	!	!	!	!	!	!	!	!	!	!	!	!	!	!
16c\LL	7	.	(24e/LL	.	(24g/LL	.	4.ryy	4.ryy	(16g\LL	ve-	.	.	.	.
.	.	.	24f/	.	24a/	.	.	.	.	.	.	.	.	.
16CC/	.	.	.	.	.	.	.	.	16a\JJ)	.	.	.	.	.
.	.	.	24g/JJ)	.	24b-/JJ)	.	.	.	.	.	.	.	.	.
16EE/	.	.	4g/	.	4b-/T	.	.	.	8b-\	-nit	.	.	.	.
16GG/	.	.	.	.	.	.	.	.	.	.	.	.	.	.
16C/	.	.	.	.	.	.	.	.	16r	.	.	.	.	.
16E/JJ	.	.	.	.	.	.	.	.	16b-\	in	.	.	.	.
=31	=31	=31	=31	=31	=31	=31	=31	=31	=31	=31	=31	=31	=31	=31
!	!	!	!	!	!	!	!	!	!	!LO:MO:mod=no-	!	!	!	!
4F\	.	.	16.f/LL	.	8a/	.	4.ryy	4.ryy	8a\	No-	4.r	.	4.r	.
.	.	.	32a/JJk	.	.	.	.	.	.	.	.	.	.	.
*	*	*	*	*	*	*	*	*	*Xtuplet	*	*	*	*	*
!	!	!	!	!	!LO:MO:mod=24ffLL(	!	!	!	!LO:MO:mod=24ffLL(	!	!	!	!	!
.	.	.	(24a/LL	.	24ff\LL	.	.	.	24ff\LL	.	.	.	.	.
!	!	!	!	!	!LO:MO:mod=24ee	!	!	!	!LO:MO:mod=24ee	!	!	!	!	!
.	.	.	24g/	.	(24ee\	.	.	.	(24ee\	.	.	.	.	.
.	.	.	24b-/JJ)	.	24dd\JJ)	.	.	.	24dd\JJ)	.	.	.	.	.
*	*	*	*	*	*	*	*	*	*Xbrackettup	*	*	*	*	*
!	!	!	!	!	!LO:MO:mod=24ccLL(	!	!	!	!LO:MO:mod=24ccLL(	!	!	!	!	!
8r	.	.	(24a/LL	.	24cc\LL	.	.	.	24cc\LL	-mi-	.	.	.	.
!	!	!	!	!	!LO:MO:mod=24b-	!	!	!	!LO:MO:mod=24b-JJ)	!	!	!	!	!
.	.	.	24g/	.	(24b-\	.	.	.	24b-\JJ	.	.	.	.	.
.	.	.	24f/JJ)	.	24a\JJ)	.	.	.	24a\	-ne	.	.	.	.
!	!	!	!LO:LB:g=original	!	!	!	!	!	!LO:LB:g=original	!	!	!	!	!
=32	=32	=32	=32	=32	=32	=32	=32	=32	=32	=32	=32	=32	=32	=32
.	.	.	.	.	8qqb-/	.	.	.	.	.	.	.	.	.
8c\	6 4	.	8f/L	.	8a/L	.	4.ryy	4.ryy	16.a\	Do-	8r	.	8r	.
.	.	.	.	.	.	.	.	.	32g/	-mi-	.	.	.	.
!LO:TX:a:t=P:problem=mixed beam	!	!	!	!	!	!	!	!	!	!	!	!	!	!
16C/LL	5_ 3_	.	8e/J	.	8g/J	.	.	.	8g/	-ni	16r	.	16r	.
!	!	!	!	!	!	!	!	!	!	!	!	!LO:DY:ed=brack	!	!LO:DY:ed=brack
!	!	!	!	!	!	!	!	!	!	!	!	!LO:MO:null:mod=p	!	!LO:MO:null:mod=p
16c\	.	.	.	.	.	.	.	.	.	.	16c/LL	.	16g\LL	.
16G\	X X	.	8r	.	8r	.	.	.	8r	.	16c/	.	16g\	.
16E\JJ	.	.	.	.	.	.	.	.	.	.	16c/JJ	.	16g\JJ	.
!LO:LB:g=original	!	!	!	!	!	!	!	!	!	!	!	!	!	!
=33	=33	=33	=33	=33	=33	=33	=33	=33	=33	=33	=33	=33	=33	=33
8C/L	.	.	8g/L	.	8ee\L	.	4.ryy	4.ryy	8cc\	qui	8c/	.	8g\	.
!	!	!	!	!	!	!	!	!	!LO:MO:mod=24eeLL(	!	!	!	!	!
8C/	.	.	8g/	.	8ee\	.	.	.	24ee\LL	ve-	8r	.	8r	.
!	!	!	!	!	!	!	!	!	!LO:MO:mod=24dd	!	!	!	!	!
.	.	.	.	.	.	.	.	.	(24dd\	.	.	.	.	.
.	.	.	.	.	.	.	.	.	24cc\JJ)	.	.	.	.	.
8C/J	.	.	8g/J	.	8ee\J	.	.	.	8g\	-nit	8r	.	8r	.
=34	=34	=34	=34	=34	=34	=34	=34	=34	=34	=34	=34	=34	=34	=34
8BBn/L	6	.	8g/L	.	8ff\L	.	4.ryy	4.ryy	8dd\	qui	8g\	.	8g\	.
8BB/	.	.	8g/	.	8ff\	.	.	.	24ff\LL(	ve-	8r	.	8r	.
.	.	.	.	.	.	.	.	.	24ee\	.	.	.	.	.
.	.	.	.	.	.	.	.	.	24dd\JJ)	.	.	.	.	.
8BB/J	.	.	8g/J	.	8ff\J	.	.	.	8g\	-nit	8r	.	8r	.
=35	=35	=35	=35	=35	=35	=35	=35	=35	=35	=35	=35	=35	=35	=35
!	!	!	!LO:MO:mod=16gLL(	!	!LO:MO:mod=16eeLL(	!	!	!	!	!	!LO:N:vis=0	!	!LO:N:vis=0	!
4C/	.	.	16g/LL	.	16ee\LL	.	4.ryy	4.ryy	(16ee\LL	in	2.r	.	2.r	.
!	!	!	!LO:MO:mod=16f)	!	!LO:MO:mod=16dd)	!	!	!	!	!	!	!	!	!
.	.	.	(16f/	.	(16dd\	.	.	.	16dd\JJ)	.	.	.	.	.
!	!	!	!LO:MO:mod=16a(	!	!LO:MO:mod=16ff(	!	!	!	!	!	!	!	!	!
.	.	.	16a/	.	16ff\	.	.	.	(16ff\LL	no-	.	.	.	.
!	!	!	!	!	!LO:MO:mod=16ee)	!	!	!	!	!	!	!	!	!
.	.	.	16g/)	.	16ee\	.	.	.	16ee\JJ)	.	.	.	.	.
!	!	!	!LO:MO:mod=16f(	!	!LO:MO:mod=16dd(	!	!	!	!	!	!	!	!	!
8F\	6\	.	16f/	.	16dd\)	.	.	.	16dd\	-mi-	.	.	.	.
!	!	!	!LO:MO:mod=16eJJ)	!	!LO:MO:mod=16ccJJ)	!	!	!	!	!	!	!	!	!
.	.	.	16e/JJ	.	16cc\JJ	.	.	.	16cc\	-ne	.	.	.	.
=36	=36	=36	=36	=36	=36	=36	=36	=36	=36	=36	=36	=36	=36	=36
!LO:TX:a:t=P:problem=mixed beam	!	!	!	!	!	!	!	!	!	!	!	!	!	!
8G\L	n_	.	8.d/L	.	8.bn\L	.	4.ryy	4.ryy	16.bn\	Do-	.	.	.	.
.	.	.	.	.	.	.	.	.	32cc\	-mi-	.	.	.	.
8GG/	.	.	.	.	.	.	.	.	8dd\	-ni	.	.	.	.
.	.	.	16e/K	.	16cc\K	.	.	.	.	.	.	.	.	.
8G\J	X	.	8f/J	.	8dd\J	.	.	.	8r	.	.	.	.	.
!	!	!	!	!	!LO:LB:g=original	!	!	!	!	!	!	!	!LO:LB:g=original	!
=37	=37	=37	=37	=37	=37	=37	=37	=37	=37	=37	=37	=37	=37	=37
8GG/L	7 4	.	16r	.	16r	.	4.ryy	4.ryy	16r	.	8g\	.	8g\	.
.	.	.	16f/	.	16dd\	.	.	.	16dd\	in	.	.	.	.
.	.	.	.	.	.	.	.	.	8qqee/	.	.	.	.	.
!	!	!	!	!	!LO:MO:mod=16ddLL(	!	!	!	!	!	!	!	!	!
8GG/	6 4	.	(16f/LL	.	16dd\LL	.	.	.	(16dd\LL	no-	8r	.	8r	.
!	!	!	!LO:MO:mod=16e)	!	!LO:MO:mod=16cc)	!	!	!	!	!	!	!	!	!
.	.	.	16e/	.	16cc\	.	.	.	16cc\JJ)	.	.	.	.	.
!	!	!	!LO:MO:mod=16e(	!	!LO:MO:mod=16cc(	!	!	!	!LO:LB:g=original	!	!	!	!	!
8GG/J	5 4	.	16e/)	.	16cc\	.	.	.	16cc\	-mi-	8r	.	8r	.
!	!	!	!LO:MO:mod=16dJJ)	!	!LO:MO:mod=16bJJ)	!	!	!	!	!	!	!	!	!
.	.	.	16d/JJ	.	16bn\JJ	.	.	.	16bn\	-ne	.	.	.	.
!	!	!	!	!	!	!	!	!	!	!	!LO:LB:g=original	!	!	!
=38	=38	=38	=38	=38	=38	=38	=38	=38	=38	=38	=38	=38	=38	=38
8GG/L	6 4_	.	8.e/L	.	8.cc\L	.	4.ryy	4.ryy	8.cc\	Do-	4.r	.	4.r	.
8GG/	.	.	.	.	.	.	.	.	.	.	.	.	.	.
.	.	.	16f/K	.	16dd\K	.	.	.	16dd\	-mi-	.	.	.	.
8GG/J	x X	.	8g/J	.	8ee\J	.	.	.	8ee\	-ni	.	.	.	.
=39	=39	=39	=39	=39	=39	=39	=39	=39	=39	=39	=39	=39	=39	=39
8GG/L	6 4	.	16r	.	16r	.	4.ryy	4.ryy	16r	.	8g\	.	8g\	.
.	.	.	16g/	.	16ee\	.	.	.	16ee\	in	.	.	.	.
!	!	!	!	!	!LO:MO:mod=16eeLL(	!	!	!	!	!LO:MO:mod=no-	!	!	!	!
8GG/	7 5	.	(16g/LL	.	16ee\LL	.	.	.	(16ee\LL	No-	8r	.	8r	.
!	!	!	!LO:MO:mod=16f)	!	!LO:MO:mod=16dd)	!	!	!	!	!	!	!	!	!
.	.	.	16f/	.	(16dd\	.	.	.	16dd\JJ)	.	.	.	.	.
!	!	!	!LO:MO:mod=16f(	!	!LO:MO:mod=16dd(	!	!	!	!	!	!	!	!	!
8GG/J	6 4	.	16f/)	.	16dd\	.	.	.	16dd\	-mi-	8r	.	8r	.
!	!	!	!LO:MO:mod=16eJJ)	!	!	!	!	!	!	!	!	!	!	!
.	.	.	16e/JJ	.	16cc\JJ)	.	.	.	16cc\	-ne	.	.	.	.
=40	=40	=40	=40	=40	=40	=40	=40	=40	=40	=40	=40	=40	=40	=40
!	!	!	!LO:SIC:v:s=16BKL	!	!	!	!	!	!	!	!	!	!	!
8GG/L	5 4	.	16B-/KL	.	16bn\KL	.	4.ryy	4.ryy	16bn\KL	Do-	4.r	.	4.r	.
!	!	!	!LO:SIC:v:s=8b	!	!	!	!	!	!	!	!	!	!	!
.	.	.	8b-/	.	8dd\	.	.	.	8dd\	.	.	.	.	.
8GG/	6 4	.	.	.	.	.	.	.	.	.	.	.	.	.
.	.	.	8cc/	.	8ee\	.	.	.	8ee\	.	.	.	.	.
8GG/J	7 5	.	.	.	.	.	.	.	.	.	.	.	.	.
.	.	.	16dd/Jk	.	16ff\Jk	.	.	.	16ff\Jk	.	.	.	.	.
=41	=41	=41	=41	=41	=41	=41	=41	=41	=41	=41	=41	=41	=41	=41
8C\L	.	.	8cc\	.	8ee\L	.	4.ryy	4.ryy	8ee\L	.	8c/	.	8g\	.
8r	.	.	8r	.	(8gg\	.	.	.	8gg\	.	8r	.	8r	.
8E\J	6\	.	8g/	.	8cc#X\J)	.	.	.	8cc#X\J	.	8r	.	8r	.
=42	=42	=42	=42	=42	=42	=42	=42	=42	=42	=42	=42	=42	=42	=42
!	!	!	!	!	!	!	!	!	!	!	!LO:N:vis=00	!	!LO:N:vis=00	!
8F\L	6	.	8a/	.	8dd\L	.	4.ryy	4.ryy	8dd\L	.	1.r	.	1.r	.
8r	.	.	8r	.	(8ff\	.	.	.	8ff\J	.	.	.	.	.
8G\J	7 4	.	8f/	.	8bn\J)	.	.	.	8bn\	-mi-	.	.	.	.
!	!	!	!LO:LB:g=original	!	!	!	!	!	!	!	!	!	!	!
=43	=43	=43	=43	=43	=43	=43	=43	=43	=43	=43	=43	=43	=43	=43
8A\L	3	.	8e/	.	8ee\L	.	4.ryy	4.ryy	8cc\	-ni	.	.	.	.
8r	.	.	8r	.	(8gg\	.	.	.	8r	.	.	.	.	.
8E\J	6\	.	8g/	.	8cc#X\J)	.	.	.	8cc#X\	qui	.	.	.	.
=44	=44	=44	=44	=44	=44	=44	=44	=44	=44	=44	=44	=44	=44	=44
8F\L	6	.	8a/	.	8dd\L	.	4.ryy	4.ryy	8dd\L	ve-	.	.	.	.
8r	.	.	8r	.	(8ff\	.	.	.	8ff\	.	.	.	.	.
8G\J	4	.	8f/	.	8bn\J)	.	.	.	8bn\J	.	.	.	.	.
!	!	!	!	!	!	!	!	!	!LO:LB:g=original	!	!	!	!	!
=45	=45	=45	=45	=45	=45	=45	=45	=45	=45	=45	=45	=45	=45	=45
!LO:TX:a:t=P:problem=mixed beam	!	!	!	!	!	!	!	!	!	!	!	!	!	!
16C/LL	3	.	16e/LL	.	16cc'\LL	.	4.ryy	4.ryy	8cc\	-nit	.	.	.	.
!	!	!	!LO:TX:a:t=c:mod=	!	!	!	!	!	!	!	!	!	!	!
16c\	.	.	(16cc'/	.	(16ee'\	.	.	.	.	.	.	.	.	.
16Bn\	.	.	16cc'/	.	16ee'\	.	.	.	8r	.	.	.	.	.
!	!	!	!LO:MO:mod=16cc'	!	!	!	!	!	!	!	!	!	!	!
16A\	.	.	16cc/	.	16ee'\	.	.	.	.	.	.	.	.	.
!	!	!	!LO:MO:mod=16cc'	!	!LO:MO:mod=16ee'	!	!	!	!	!	!	!	!	!
16G\	.	.	16cc'/)	.	16ee'\)	.	.	.	8ee\	in	.	.	.	.
!	!	!	!LO:MO:mod=16cc'JJ)	!	!LO:MO:mod=16ee'JJ)	!	!	!	!	!	!	!	!	!
16F\JJ	.	.	16cc/JJ	.	16ee'\JJ	.	.	.	.	.	.	.	.	.
!LO:LB:g=original	!	!	!	!	!	!	!	!	!	!	!	!	!	!
=46	=46	=46	=46	=46	=46	=46	=46	=46	=46	=46	=46	=46	=46	=46
!	!	!	!LO:MO:mod=8.ccLT	!	!	!	!	!	!	!	!LO:N:vis=00	!	!LO:N:vis=00	!
8E\L	6	.	8.cc\L	.	8.ee\Lt	.	4.ryy	4.ryy	8.ee\	no-	1.r	.	1.r	.
8D\	n	.	.	.	.	.	.	.	.	.	.	.	.	.
.	.	.	16dd\K	.	16ff\K	.	.	.	16ff\	-mi-	.	.	.	.
8C\J	6	.	8ee\J	.	8gg\J	.	.	.	8gg\	-ne	.	.	.	.
=47	=47	=47	=47	=47	=47	=47	=47	=47	=47	=47	=47	=47	=47	=47
!LO:TX:a:t=P:problem=mixed beam	!	!	!LO:MO:mod=24ffLL(	!	!LO:MO:mod=24aaLL(	!	!	!	!LO:MO:mod=24aaLL(	!	!	!	!	!
8F\L	.	.	24ff\LL	.	24aa\LL	.	4.ryy	4.ryy	24aa\LL	Do-	.	.	.	.
!	!	!	!	!	!LO:MO:mod=24gg	!	!	!	!LO:MO:mod=24gg	!	!	!	!	!
.	.	.	24ee\	.	(24gg\	.	.	.	(24gg\	.	.	.	.	.
!	!	!	!LO:MO:mod=24ddJJ)	!	!	!	!	!	!	!	!	!	!	!
.	.	.	24dd\JJ	.	24ff\JJ)	.	.	.	24ff\JJ)	.	.	.	.	.
!	!	!	!	!	!LO:LB:g=original	!	!	!	!	!	!	!	!	!
8G\	6 4	.	8cc\L	.	8ee\L	.	.	.	8ee\	.	.	.	.	.
8GG/J	5 4	.	8bn\J	.	8dd\J	.	.	.	8dd\	-mi-	.	.	.	.
=48	=48	=48	=48	=48	=48	=48	=48	=48	=48	=48	=48	=48	=48	=48
!LO:TX:a:t=P:problem=mixed beam	!	!	!	!LO:DY:a:rj:t=p.	!LO:MO:mod=16cc'LL(	!	!	!	!	!	!	!	!	!
16C/LL	3_	.	(16cc'\LL	p	(16cc\LL	.	4.ryy	4.ryy	8cc\	-ni	.	.	.	.
!	!	!	!	!	!LO:MO:mod=16ee'	!	!	!	!	!	!	!	!	!
16c\	.	.	16cc'\	.	16ee\	.	.	.	.	.	.	.	.	.
!	!	!	!	!	!LO:MO:mod=16ee'	!	!	!	!	!	!	!	!	!
16Bn\	.	.	16cc'\	.	16ee\	.	.	.	8r	.	.	.	.	.
!	!	!	!	!	!LO:MO:mod=16ee'	!	!	!	!	!	!	!	!	!
16A\	.	.	16cc'\	.	16ee\	.	.	.	.	.	.	.	.	.
!	!	!	!	!	!LO:MO:mod=16ee'	!	!	!	!	!	!	!	!	!
16G\	X	.	16cc'\	.	16ee\)	.	.	.	8ee\	in	.	.	.	.
!	!	!	!	!	!LO:MO:mod=16ee'JJ)	!	!	!	!	!	!	!	!	!
16F\JJ	.	.	16cc'\JJ)	.	16ee\JJ	.	.	.	.	.	.	.	.	.
=49	=49	=49	=49	=49	=49	=49	=49	=49	=49	=49	=49	=49	=49	=49
!	!	!	!	!	!LO:MO:mod=8.eeLt	!	!	!	!	!	!	!	!	!
8E\L	6	.	8.cc\LT	.	8.ee\L	.	4.ryy	4.ryy	8.ee\	no-	.	.	.	.
8D\	4	.	.	.	.	.	.	.	.	.	.	.	.	.
.	.	.	16dd\K	.	16ff\K	.	.	.	16ff\	-mi-	.	.	.	.
8C\J	.	.	8ee\J	.	8gg\J	.	.	.	8gg\	-ne	.	.	.	.
=50	=50	=50	=50	=50	=50	=50	=50	=50	=50	=50	=50	=50	=50	=50
!LO:TX:a:t=P:problem=mixed beam	!	!	!LO:MO:mod=24ffLL(	!	!	!	!	!	!LO:MO:mod=24aaLL(	!	!	!	!	!
8F\L	.	.	24ff\LL	.	(24aa\LL	.	4.ryy	4.ryy	24aa\LL	Do-	4.r	.	4.r	.
!	!	!	!LO:MO:mod=24ee	!	!	!	!	!	!LO:MO:mod=24gg	!	!	!	!	!
.	.	.	(24ee\	.	24gg\	.	.	.	(24gg\	.	.	.	.	.
.	.	.	24dd\JJ)	.	24ff\JJ)	.	.	.	24ff\JJ)	.	.	.	.	.
!	!	!	!LO:MO:mod=8ccLT	!	!	!	!	!	!	!	!	!	!	!
8G\	6 4	.	8cc\L	.	8ee\Lt	.	.	.	8ee\	.	.	.	.	.
8GG\J	5 4	.	8bn\J	.	8dd\J	.	.	.	8dd\T	-mi-	.	.	.	.
=51	=51	=51	=51	=51	=51	=51	=51	=51	=51	=51	=51	=51	=51	=51
!	!	!LO:DY:ed=brack	!	!	!	!LO:DY:ed=brack	!	!	!	!	!	!LO:DY:ed=brack	!	!LO:DY:ed=brack
!	!	!LO:MO:null:mod=f	!	!LO:DY:a	!	!LO:MO:null:mod=f	!	!	!	!	!	!LO:MO:null:mod=f	!	!LO:MO:null:mod=f
4C/	.	.	8cc\	f	16.cc\LL	.	4.ryy	4.ryy	4cc\	-ni	8c/	.	8g\	.
.	.	.	.	.	32ee\JJk	.	.	.	.	.	.	.	.	.
!	!	!	!LO:MO:mod=24ccLL(	!	!LO:MO:mod=24eeLL(	!	!	!	!	!	!	!	!	!
.	.	.	24cc\LL	.	24ee\LL	.	.	.	.	.	8r	.	8r	.
!	!	!	!LO:MO:mod=24b	!	!LO:MO:mod=24dd	!	!	!	!	!	!	!	!	!
.	.	.	(24bn\	.	(24dd\	.	.	.	.	.	.	.	.	.
.	.	.	24a\JJ)	.	24cc\JJ)	.	.	.	.	.	.	.	.	.
8r	.	.	(24g/LL	.	(24bn/LL	.	.	.	8r	.	8r	.	8r	.
.	.	.	24f/	.	24a/	.	.	.	.	.	.	.	.	.
.	.	.	24e/JJ)	.	24g/JJ)	.	.	.	.	.	.	.	.	.
=52	=52	=52	=52	=52	=52	=52	=52	=52	=52	=52	=52	=52	=52	=52
.	.	.	.	.	16qqa/LL	.	.	.	.	.	.	.	.	.
.	.	.	.	.	16qqb-/JJ	.	.	.	.	.	.	.	.	.
!	!	!	!	!	!	!	!	!	!LO:N:vis=00	!	!	!	!	!
8F\L	.	.	8f/	.	8a/	.	4.ryy	4.ryy	1.r	.	8a\	.	8a\	.
!	!	!	!LO:MO:mod=4dT	!	!	!	!	!	!	!	!	!	!	!
8G\	6 4	.	4d/	.	4f/T	.	.	.	.	.	4g\	.	4bX\t	.
8G\J	7 n3	.	.	.	.	.	.	.	.	.	.	.	.	.
=53	=53	=53	=53	=53	=53	=53	=53	=53	=53	=53	=53	=53	=53	=53
!	!	!	!LO:TX:a:t=P:problem=mixed beam	!	!LO:TX:a:t=P:problem=mixed beam	!	!	!	!	!	!	!	!	!
4A\	5	.	16.c/LL	.	16.e/LL	.	4.ryy	4.ryy	.	.	4g\	.	4cc\	.
.	.	.	32cc\JJk	.	32ee\JJk	.	.	.	.	.	.	.	.	.
!	!	!	!LO:LB:g=original	!	!	!	!	!	!	!	!	!	!	!
!	!	!	!LO:MO:mod=24ccLL(	!	!LO:MO:mod=24eeLL(	!	!	!	!	!	!	!	!	!
.	.	.	24cc\LL	.	24ee\LL	.	.	.	.	.	.	.	.	.
!	!	!	!LO:MO:mod=24b	!	!LO:MO:mod=24dd	!	!	!	!	!	!	!	!	!
.	.	.	(24bn\	.	(24dd\	.	.	.	.	.	.	.	.	.
.	.	.	24a\JJ)	.	24cc\JJ)	.	.	.	.	.	.	.	.	.
8r	.	.	(24g/LL	.	(24bn/LL	.	.	.	.	.	8r	.	8r	.
.	.	.	24f/	.	24a/	.	.	.	.	.	.	.	.	.
.	.	.	24e/JJ)	.	24g/JJ)	.	.	.	.	.	.	.	.	.
=54	=54	=54	=54	=54	=54	=54	=54	=54	=54	=54	=54	=54	=54	=54
!LO:TX:a:t=P:problem=mixed beam	!	!	!	!	!	!	!	!	!	!	!	!	!	!
8F\L	6	.	16.a\LL	.	16.a\LL	.	4.ryy	4.ryy	.	.	8f\L	.	8a\L	.
.	.	.	32dd\JJk	.	32ff\JJk	.	.	.	.	.	.	.	.	.
.	.	.	8qqcc/	.	8qqee/	.	.	.	.	.	.	.	.	.
!	!	!	!LO:MO:mod=4bt	!	!	!	!	!	!	!	!	!	!	!
8G\	6 4	.	4bn\	.	4dd\T	.	.	.	.	.	8g\J	.	8g\J	.
8GG/J	5 n3	.	.	.	.	.	.	.	.	.	8r	.	8r	.
=55	=55	=55	=55	=55	=55	=55	=55	=55	=55	=55	=55	=55	=55	=55
8C/L	.	.	16.cc/LL	.	16.cc/LL	.	4.ryy	4.ryy	.	.	8c/L	.	8g\L	.
.	.	.	32g/JJk	.	32g/JJk	.	.	.	.	.	.	.	.	.
8CC/J	.	.	4e/	.	4e/	.	.	.	.	.	16c/L	.	16g\L	.
.	.	.	.	.	.	.	.	.	.	.	16c/	.	16g\	.
8r	.	.	.	.	.	.	.	.	.	.	16c/	.	16g\	.
.	.	.	.	.	.	.	.	.	.	.	16c/JJ	.	16g\JJ	.
!	!	!	!	!	!LO:LB:g=original	!	!	!	!LO:LB:g=original	!	!	!	!	!
=56	=56	=56	=56	=56	=56	=56	=56	=56	=56	=56	=56	=56	=56	=56
!	!	!	!	!	!	!LO:DY:ed=brack	!	!	!	!	!	!	!	!
!	!	!	!	!LO:DY:a	!	!LO:MO:null:mod=p	!	!	!	!	!	!	!	!
16r	.	.	4.e/	p	4.g/	.	4.ryy	4.ryy	4.g/	Be-	4c/	.	4g\	.
!	!	!LO:DY:ed=brack	!	!	!	!	!	!	!	!	!	!	!	!
!	!	!LO:MO:null:mod=p	!	!	!	!	!	!	!	!	!	!	!	!
16CC/LL	3_	.	.	.	.	.	.	.	.	.	.	.	.	.
16EE/	.	.	.	.	.	.	.	.	.	.	.	.	.	.
16GG/	X	.	.	.	.	.	.	.	.	.	.	.	.	.
16C/	.	.	.	.	.	.	.	.	.	.	8r	.	8r	.
16E/JJ	.	.	.	.	.	.	.	.	.	.	.	.	.	.
=57	=57	=57	=57	=57	=57	=57	=57	=57	=57	=57	=57	=57	=57	=57
!LO:TX:a:t=P:problem=mixed beam	!	!	!	!	!	!	!	!	!	!	!LO:N:vis=00	!	!LO:N:vis=00	!
16G\LL	7 4	.	4.d/	.	4.f/	.	4.ryy	4.ryy	4.f/	-ne-	1.r	.	1.r	.
16GG/	.	.	.	.	.	.	.	.	.	.	.	.	.	.
16BBn/	.	.	.	.	.	.	.	.	.	.	.	.	.	.
16D/	.	.	.	.	.	.	.	.	.	.	.	.	.	.
16G/	.	.	.	.	.	.	.	.	.	.	.	.	.	.
16Bn/JJ	.	.	.	.	.	.	.	.	.	.	.	.	.	.
!LO:LB:g=original	!	!	!	!	!	!	!	!	!	!	!	!	!	!
=58	=58	=58	=58	=58	=58	=58	=58	=58	=58	=58	=58	=58	=58	=58
!	!	!	!	!	!LO:MO:mod=8eL	!	!	!	!LO:TX:a:t=P:problem=mixed beam	!	!	!	!	!
4c\	.	.	8c/L	.	8e/	.	4.ryy	4.ryy	8e/L	-di-	.	.	.	.
!	!	!	!	!	!LO:MO:mod=8cc(	!	!	!	!	!	!	!	!	!
.	.	.	(8a/	.	(8cc\L	.	.	.	8cc\J	.	.	.	.	.
8r	.	.	8g/J)	.	8bn\J)	.	.	.	8bn\	-ctus	.	.	.	.
=59	=59	=59	=59	=59	=59	=59	=59	=59	=59	=59	=59	=59	=59	=59
!LO:TX:a:t=P:problem=mixed beam	!	!	!LO:MO:mod=8f(	!	!LO:MO:mod=8a(	!	!	!	!	!	!	!	!	!
8F\L	.	.	8f/	.	8a/	.	4.ryy	4.ryy	8a\	qui	.	.	.	.
.	.	.	.	.	8qqg/	.	.	.	8qqg/	.	.	.	.	.
!	!	!	!LO:MO:mod=4d)	!	!LO:MO:mod=4f)	!	!	!	!	!	!	!	!	!
8G\	6 4	.	4d/	.	4f/	.	.	.	4f/	ve-	.	.	.	.
8GG/J	5 n3r	.	.	.	.	.	.	.	.	.	.	.	.	.
=60	=60	=60	=60	=60	=60	=60	=60	=60	=60	=60	=60	=60	=60	=60
!	!	!	!LO:MO:mod=8cL(	!	!LO:MO:mod=8eL(	!	!	!	!	!	!	!	!	!
4C/	.	.	8c/L	.	8e/L	.	4.ryy	4.ryy	8e/	-nit	.	.	.	.
.	.	.	8e/	.	8g/	.	.	.	(8g\L	in	.	.	.	.
!	!	!	!LO:MO:mod=8fJ)	!	!LO:MO:mod=8aJ)	!	!	!	!	!	!	!	!	!
8r	.	.	8f/J	.	8a/J	.	.	.	8a\J)	.	.	.	.	.
=61	=61	=61	=61	=61	=61	=61	=61	=61	=61	=61	=61	=61	=61	=61
!	!	!	!LO:MO:mod=8gL(	!	!LO:MO:mod=8b-L(	!	!	!	!	!	!LO:N:vis=0	!	!LO:N:vis=0	!
4.r	.	.	8g/L	.	8b-X\L	.	4.ryy	4.ryy	(8b-X\L	no-	2.r	.	2.r	.
.	.	.	8a/	.	8cc\	.	.	.	8cc\	.	.	.	.	.
!	!	!	!LO:MO:mod=8b-J)	!	!LO:MO:mod=8ddJ)	!	!	!	!LO:MO:mod=8ddJ	!	!	!	!	!
.	.	.	8b-/J	.	8dd\J	.	.	.	(<8dd\J)	.	.	.	.	.
=62	=62	=62	=62	=62	=62	=62	=62	=62	=62	=62	=62	=62	=62	=62
!LO:TX:a:t=P:problem=mixed beam	!	!	!	!	!	!	!	!	!	!	!	!	!	!
8F\L	.	.	(8a/L	.	(8cc\L	.	4.ryy	4.ryy	8cc\)	.	.	.	.	.
8BB-/	8 6	.	8g/	.	8b-\	.	.	.	8b-\	-mi-	.	.	.	.
8BBn/J	7 5	.	8f/J)	.	8a\J)	.	.	.	8a\	-ne	.	.	.	.
=63	=63	=63	=63	=63	=63	=63	=63	=63	=63	=63	=63	=63	=63	=63
!LO:TX:a:t=P:problem=mixed beam	!	!	!	!	!LO:MO:mod=8aLt	!	!	!	!	!	!	!	!	!
8C/L	6 4	.	8f/LT	.	8a/L	.	4.ryy	4.ryy	16.a\	Do-	4.r	.	4.r	.
.	.	.	.	.	.	.	.	.	32g\	-mi-	.	.	.	.
16c\L	5_ 3_	.	8e/J	.	8g/J	.	.	.	8g/	-ni	.	.	.	.
16B-X\	.	.	.	.	.	.	.	.	.	.	.	.	.	.
16A\	X X	.	8r	.	8r	.	.	.	8r	.	.	.	.	.
16G\JJ	.	.	.	.	.	.	.	.	.	.	.	.	.	.
=64	=64	=64	=64	=64	=64	=64	=64	=64	=64	=64	=64	=64	=64	=64
!	!	!	!	!	!	!	!	!	!	!	!	!	!	!LO:DY:ed=brack
!LO:TX:a:t=P:problem=mixed beam	!	!	!	!	!	!	!	!	!	!LO:MO:mod=be-	!	!LO:DY:a:t=p.	!	!LO:MO:null:mod=p
16F\LL	3_	.	4.a/	.	4.cc\	.	4.ryy	4.ryy	4.cc\	Be-	4.a\	p	4.cc\	.
16FF/	.	.	.	.	.	.	.	.	.	.	.	.	.	.
16AA/	X	.	.	.	.	.	.	.	.	.	.	.	.	.
16C/	.	.	.	.	.	.	.	.	.	.	.	.	.	.
16F/	.	.	.	.	.	.	.	.	.	.	.	.	.	.
16A/JJ	.	.	.	.	.	.	.	.	.	.	.	.	.	.
!	!	!	!	!	!	!	!	!	!LO:PB:g=original	!	!	!	!	!
=65	=65	=65	=65	=65	=65	=65	=65	=65	=65	=65	=65	=65	=65	=65
!LO:TX:a:t=P:problem=mixed beam	!	!	!	!	!	!	!	!	!	!	!	!	!	!
.	.	.	.	.	8qqcc/	.	.	.	.	.	.	.	.	.
16c\LL	7_	.	4.g/	.	4.b-\	.	4.ryy	4.ryy	4.b-\	-ne-	4.g\	.	4.b-\T	.
16CC/	.	.	.	.	.	.	.	.	.	.	.	.	.	.
16EE/	X	.	.	.	.	.	.	.	.	.	.	.	.	.
16GG/	.	.	.	.	.	.	.	.	.	.	.	.	.	.
16C/	.	.	.	.	.	.	.	.	.	.	.	.	.	.
16E/JJ	.	.	.	.	.	.	.	.	.	.	.	.	.	.
!	!	!	!	!	!	!	!	!	!	!	!	!	!LO:LB:g=original	!
=66	=66	=66	=66	=66	=66	=66	=66	=66	=66	=66	=66	=66	=66	=66
!	!	!	!LO:TX:a:t=P:problem=mixed beam	!	!	!	!	!	!	!	!	!	!	!
4F\	.	.	8f/L	.	8a\L	.	4.ryy	4.ryy	(8a\L	-dic-	8f\	.	8a\	.
.	.	.	(8dd\	.	(8ff\	.	.	.	8ff\	.	8r	.	8r	.
8r	.	.	8cc\J)	.	8ee\J)	.	.	.	8ee\J)	.	8r	.	8r	.
=67	=67	=67	=67	=67	=67	=67	=67	=67	=67	=67	=67	=67	=67	=67
!LO:TX:a:t=P:problem=mixed beam	!	!	!	!	!	!	!	!	!	!	!LO:TX:a:t=1:mod=	!	!	!
8B-\L	.	.	8b-/	.	8dd\	.	4.ryy	4.ryy	8dd\	-tus	4.r	.	4.r	.
.	.	.	.	.	8qqcc/	.	.	.	8qqcc/	.	.	.	.	.
8c\	6 4	.	4g/	.	4b-\	.	.	.	4b-\T	qui	.	.	.	.
8C/J	5 3	.	.	.	.	.	.	.	.	.	.	.	.	.
!	!	!	!LO:LB:g=original	!	!	!	!	!	!	!	!LO:PB:g=original	!	!	!
=68	=68	=68	=68	=68	=68	=68	=68	=68	=68	=68	=68	=68	=68	=68
!LO:TX:a:t=P:problem=mixed beam	!	!	!	!	!LO:MO:mod=24aLL(	!	!	!	!	!	!	!	!	!
16F\LL	3_	.	(24f/LL	.	24a\LL	.	4.ryy	4.ryy	(16a\LL	ve-	16r	.	16r	.
!	!	!	!	!	!LO:MO:mod=24b-	!	!	!	!	!	!	!	!	!
.	.	.	24g/	.	(24b-\	.	.	.	.	.	.	.	.	.
16FF/	.	.	.	.	.	.	.	.	16b-\JJ)	.	16f\	.	16a\	.
.	.	.	24a/JJ)	.	24cc\JJ)	.	.	.	.	.	.	.	.	.
!	!	!	!	!	!	!	!	!	!	!	!	!	!LO:MO:mod=16ccLL(	!
16AA/	X	.	4a/t	.	4cc\T	.	.	.	8cc\	-nit	(16a\LL	.	16cc\LL	.
!	!	!	!	!	!	!	!	!	!	!	!	!	!LO:MO:mod=16a	!
16C/	.	.	.	.	.	.	.	.	.	.	16f\	.	(16a\	.
!	!	!	!	!	!	!	!	!	!	!	!LO:MO:mod=16a	!	!LO:MO:mod=16cc	!
16F/	.	.	.	.	.	.	.	.	16r	.	16a\)	.	16cc\)	.
!	!	!	!	!	!	!	!	!	!	!	!LO:MO:mod=16fJJ)	!	!LO:MO:mod=16aJJ)	!
16A/JJ	.	.	.	.	.	.	.	.	16cc\	qui	16f\JJ	.	16a\JJ	.
!LO:LB:g=original	!	!	!	!	!	!	!	!	!	!	!	!	!	!
=69	=69	=69	=69	=69	=69	=69	=69	=69	=69	=69	=69	=69	=69	=69
!LO:TX:a:t=P:problem=mixed beam	!	!	!	!	!LO:MO:mod=24gLL(	!	!	!	!	!	!	!	!	!
16c\LL	7	.	(24e/LL	.	24g/LL	.	4.ryy	4.ryy	(16g\LL	ve-	16r	.	16r	.
!	!	!	!	!	!LO:MO:mod=24a	!	!	!	!	!	!	!	!	!
.	.	.	24f/	.	(24a/	.	.	.	.	.	.	.	.	.
16CC/	4	.	.	.	.	.	.	.	16a\JJ)	.	16c/	.	16g\	.
.	.	.	24g/JJ)	.	24b-/JJ)	.	.	.	.	.	.	.	.	.
!	!	!	!	!	!	!	!	!	!	!	!LO:MO:mod=16gLL(	!	!LO:MO:mod=16b-LL(	!
16EE/	.	.	4g/T	.	4b-/T	.	.	.	8b-\	-nit	16g\LL	.	16b-\LL	.
!	!	!	!	!	!	!	!	!	!	!	!LO:MO:mod=16c	!	!LO:MO:mod=16g	!
16GG/	.	.	.	.	.	.	.	.	.	.	(16c\	.	(16g\	.
16C/	.	.	.	.	.	.	.	.	16r	.	16g\	.	16b-\	.
16E/JJ	.	.	.	.	.	.	.	.	16b-\	in	16c\JJ)	.	16g\JJ)	.
!	!	!	!	!	!LO:LB:g=original	!	!	!	!	!	!	!	!	!
=70	=70	=70	=70	=70	=70	=70	=70	=70	=70	=70	=70	=70	=70	=70
4F\	.	.	16.f/LL	.	16.a\LL	.	4.ryy	4.ryy	8a\	no-	8f\	.	8a\	.
.	.	.	32a/JJk	.	32ff\JJk	.	.	.	.	.	.	.	.	.
!	!	!	!	!	!LO:MO:mod=24ffLL(	!	!	!	!	!	!	!	!	!
.	.	.	(24a/LL	.	24ff\LL	.	.	.	(24ff\LL	.	8r	.	8r	.
!	!	!	!	!	!LO:MO:mod=24ee	!	!	!	!	!	!	!	!	!
.	.	.	24g/	.	(24ee\	.	.	.	24ee\	.	.	.	.	.
.	.	.	24b-/JJ)	.	24dd\JJ)	.	.	.	24dd\JJ)	.	.	.	.	.
!	!	!	!	!	!LO:MO:mod=24ccLL(	!	!	!	!	!	!	!	!	!
8r	.	.	(24a/LL	.	24cc\LL	.	.	.	(24cc\LL	-mi-	8f\	.	8a\	.
!	!	!	!	!	!LO:MO:mod=24b-	!	!	!	!	!	!	!	!	!
.	.	.	24g/	.	(24b-\	.	.	.	24b-\JJ)	.	.	.	.	.
.	.	.	24f/JJ)	.	24a\JJ)	.	.	.	24a\	-ne	.	.	.	.
=71	=71	=71	=71	=71	=71	=71	=71	=71	=71	=71	=71	=71	=71	=71
!LO:TX:a:t=P:problem=mixed beam	!	!	!	!	!	!	!	!	!	!	!	!	!	!
16c\LL	6_ 4_	.	8f/L	.	8a/L	.	4.ryy	4.ryy	16.a\	Do-	8f\L	.	8a\L	.
16C/	.	.	.	.	.	.	.	.	.	.	.	.	.	.
.	.	.	.	.	.	.	.	.	32g/	-mi-	.	.	.	.
16c\	5_ 3_	.	8e/J	.	8g/J	.	.	.	8g/	-ni	8c\J	.	8g\J	.
16B-\	.	.	.	.	.	.	.	.	.	.	.	.	.	.
16A\	X X	.	8r	.	8r	.	.	.	8r	.	8r	.	8r	.
16G\JJ	.	.	.	.	.	.	.	.	.	.	.	.	.	.
=72	=72	=72	=72	=72	=72	=72	=72	=72	=72	=72	=72	=72	=72	=72
!	!	!	!LO:MO:mod=8aL(	!	!	!	!	!	!	!	!LO:N:vis=00	!	!LO:N:vis=00	!
8F#X\L	-7	.	8a\L	.	16r	.	4.ryy	4.ryy	8ee\	qui	1.r	.	1.r	.
.	.	.	.	.	16ee-X\	.	.	.	.	.	.	.	.	.
!	!	!	!LO:MO:mod=8b-	!	!	!	!	!	!	!	!	!	!	!
8G\	3	.	(8b-\	.	(24dd\LL	.	.	.	(24dd\LL	ve-	.	.	.	.
.	.	.	.	.	24cc\	.	.	.	24cc\	.	.	.	.	.
.	.	.	.	.	24b-\JJ)	.	.	.	24b-\JJ)	.	.	.	.	.
!	!	!	!	!	!	!	!	!	!LO:LB:g=original	!	!	!	!	!
8A\J	6\	.	8cc\J)	.	(24a/LL	.	.	.	(24a\LL	.	.	.	.	.
.	.	.	.	.	24g/	.	.	.	24g\	.	.	.	.	.
.	.	.	.	.	24f#X/JJ)	.	.	.	24f#X\JJ)	.	.	.	.	.
=73	=73	=73	=73	=73	=73	=73	=73	=73	=73	=73	=73	=73	=73	=73
!	!	!	!LO:MO:mod=8ddL(	!	!LO:TX:a:t=P:problem=mixed beam	!	!	!	!	!	!	!	!	!
8B-\L	6	.	8dd\L	.	16.g/LL	.	4.ryy	4.ryy	8g/	-nit	.	.	.	.
.	.	.	.	.	32ff#X\JJk	.	.	.	.	.	.	.	.	.
8A\	6\	.	8cc\	.	8ff#\L	.	.	.	8r	.	.	.	.	.
!	!	!	!LO:MO:mod=8b-J)	!	!	!	!	!	!	!	!	!	!	!
8G\J	3	.	8b-\J	.	8gg\J	.	.	.	8r	.	.	.	.	.
=74	=74	=74	=74	=74	=74	=74	=74	=74	=74	=74	=74	=74	=74	=74
!	!	!	!LO:MO:mod=8gL(	!	!	!	!	!	!	!	!	!	!	!
8E\L	7	.	8g/L	.	16r	.	4.ryy	4.ryy	8dd\	qui	.	.	.	.
.	.	.	.	.	16dd\	.	.	.	.	.	.	.	.	.
8Fn\	.	.	8a/	.	24cc\LL	.	.	.	24cc\LL	ve-	.	.	.	.
.	.	.	.	.	(24b-\	.	.	.	(24b-\	.	.	.	.	.
.	.	.	.	.	24a\JJ)	.	.	.	24a\JJ)	.	.	.	.	.
!	!	!	!LO:MO:mod=8b-J)	!	!	!	!	!	!	!	!	!	!	!
8G\J	6	.	8b-/J	.	(24g/LL	.	.	.	(24g/LL	.	.	.	.	.
!	!	!	!	!	!	!	!	!	!LO:N:acc=-	!	!	!	!	!
.	.	.	.	.	24fn/	.	.	.	24fn/	.	.	.	.	.
.	.	.	.	.	24e/JJ)	.	.	.	24en/JJ)	.	.	.	.	.
=75	=75	=75	=75	=75	=75	=75	=75	=75	=75	=75	=75	=75	=75	=75
!	!	!	!	!	!LO:TX:a:t=P:problem=mixed beam	!	!	!	!	!	!	!	!	!
!	!	!	!LO:MO:mod=8ccL(	!	!LO:MO:mod=16.fLL	!	!	!	!	!	!	!	!	!
8A\L	6	.	8cc\L	.	16f/LL	.	4.ryy	4.ryy	8f/	-nit	.	.	.	.
!	!	!	!	!	!LO:MO:mod=.	!	!	!	!	!	!	!	!	!
.	.	.	.	.	16ee\JJk	.	.	.	.	.	.	.	.	.
!	!	!	!	!	!LO:MO:null:mod=32eeJJ	!	!	!	!	!	!	!	!	!
.	.	.	.	.	.	.	.	.	.	.	.	.	.	.
!	!	!	!	!	!LO:MO:mod=8eeL(	!	!	!	!	!	!	!	!	!
8G\	6	.	8b-\	.	8ee\L	.	.	.	8r	.	.	.	.	.
!	!	!	!LO:MO:mod=8aJ)	!	!LO:MO:mod=8ffJ)	!	!	!	!	!	!	!	!	!
8F\J	.	.	8a\J	.	8ff\J	.	.	.	8r	.	.	.	.	.
=76	=76	=76	=76	=76	=76	=76	=76	=76	=76	=76	=76	=76	=76	=76
!	!	!	!	!	!	!	!	!	!	!LO:MO:mod=be-	!	!	!LO:MO:mod=8g	!
16r	.	.	(24e/LL	.	(24g/LL	.	4.ryy	4.ryy	8g\	Be-	8c/	.	8g\L	.
.	.	.	24f/	.	24a/	.	.	.	.	.	.	.	.	.
16CC/LL	7_	.	.	.	.	.	.	.	.	.	.	.	.	.
.	.	.	24g/JJ)	.	24b-/JJ)	.	.	.	.	.	.	.	.	.
!	!	!	!	!	!	!	!	!	!	!	!	!	!LO:MO:mod=8.gTL	!
16EE/	.	.	4g/	.	4b-/	.	.	.	8.g\L	-ne-	8.c/L	.	8.g\T	.
16GG/	X	.	.	.	.	.	.	.	.	.	.	.	.	.
16C/	.	.	.	.	.	.	.	.	.	.	.	.	.	.
16E/JJ	.	.	.	.	.	.	.	.	(32a\LL	.	(32f/LL	.	(32a\LL	.
.	.	.	.	.	.	.	.	.	32b-\JJJ)	.	32g/JJJ)	.	32b-\JJJ)	.
=77	=77	=77	=77	=77	=77	=77	=77	=77	=77	=77	=77	=77	=77	=77
!	!	!	!	!	!LO:TX:a:t=P:problem=mixed beam	!	!	!	!	!	!LO:MO:mod=16.fLL(	!	!	!
4F\	7_	.	16f/LL	.	16a/LL	.	4.ryy	4.ryy	16.a\LL	-dic-	16.f\LL	.	(16.a\LL	.
.	.	.	16cc/	.	16aa\	.	.	.	.	.	.	.	.	.
.	X	.	.	.	.	.	.	.	32b-\JJk	.	32g\Jk	.	32b-\JK	.
!	!	!	!	!	!	!	!	!	!	!	!LO:MO:mod=8aJ)	!	!	!
.	.	.	(16b-/	.	(16gg\	.	.	.	8cc\	-tus	8a\	.	8cc\J)	.
!	!	!	!LO:MO:mod=16a)	!	!LO:MO:mod=16ff)	!	!	!	!	!	!	!	!	!
.	.	.	16a/	.	16ff\	.	.	.	.	.	.	.	.	.
!	!	!	!LO:MO:mod=16g(	!	!LO:MO:mod=16ee(	!	!	!	!	!	!	!	!	!
8r	.	.	16g/)	.	16ee\)	.	.	.	8r	.	8r	.	8r	.
!	!	!	!LO:MO:mod=16aJJ)	!	!LO:MO:mod=16ffJJ)	!	!	!	!	!	!	!	!	!
.	.	.	16a/JJ	.	16ff\JJ	.	.	.	.	.	.	.	.	.
=78	=78	=78	=78	=78	=78	=78	=78	=78	=78	=78	=78	=78	=78	=78
!	!	!	!	!	!	!	!	!	!	!	!	!	!LO:MO:mod=8g	!
16r	.	.	8b-/	.	(24gg\LL	.	4.ryy	4.ryy	8g\	qui	8c/	.	8g\L	.
.	.	.	.	.	24ee\	.	.	.	.	.	.	.	.	.
16CC/LL	7_	.	.	.	.	.	.	.	.	.	.	.	.	.
.	.	.	.	.	24b-\JJ)	.	.	.	.	.	.	.	.	.
!	!	!	!	!	!LO:TX:b:t=verte:mod=	!	!	!	!	!	!	!	!LO:MO:mod=8.gLT	!
16EE/	.	.	4g/	.	4b-\	.	.	.	8.g\L	ve-	8.c/L	.	8.g\	.
16GG/	X	.	.	.	.	.	.	.	.	.	.	.	.	.
16C/	.	.	.	.	.	.	.	.	.	.	.	.	.	.
16E/JJ	.	.	.	.	.	.	.	.	(32a\LL	.	(32f/LL	.	(32a\LL	.
.	.	.	.	.	.	.	.	.	32b-\JJJ)	.	32g/JJJ)	.	32b-\JJJ)	.
!	!	!	!LO:PB:g=original	!	!LO:PB:g=original	!	!	!	!	!	!	!	!	!
=79	=79	=79	=79	=79	=79	=79	=79	=79	=79	=79	=79	=79	=79	=79
4F\	.	.	16f/LL	.	16a/LL	.	4.ryy	4.ryy	16.a\LL	.	8f\	.	8a\	.
!	!	!	!	!	!LO:MO:mod=16a	!	!	!	!	!	!	!	!	!
.	.	.	16c/	.	(16a/	.	.	.	.	.	.	.	.	.
.	.	.	.	.	.	.	.	.	32b-\JJk	.	.	.	.	.
!	!	!	!	!	!LO:MO:mod=16g(	!	!	!	!	!	!	!	!	!
.	.	.	(16B-/	.	16g/	.	.	.	8cc\	-nit	8r	.	8r	.
.	.	.	16A/)	.	16f/)	.	.	.	.	.	.	.	.	.
!	!	!	!LO:MO:mod=16G(	!	!LO:MO:mod=16e(	!	!	!	!	!	!	!	!	!
8r	.	.	16G/	.	16e/	.	.	.	8r	.	8r	.	8r	.
!	!	!	!LO:MO:mod=16AJJ)	!	!LO:MO:mod=16fJJ)	!	!	!	!	!	!	!	!	!
.	.	.	16A/JJ	.	16f/JJ	.	.	.	.	.	.	.	.	.
!LO:LB:g=original	!	!	!	!	!	!	!	!	!LO:LB:g=original	!	!	!	!LO:LB:g=original	!
=80	=80	=80	=80	=80	=80	=80	=80	=80	=80	=80	=80	=80	=80	=80
!	!	!	!	!	!	!	!	!	!	!	!	!	!LO:TX:a:t=3:mod=	!
!	!	!	!	!	!	!	!	!	!	!	!LO:N:vis=0	!	!LO:N:vis=0	!
8B-\L	.	.	8f/L	.	8dd\	.	4.ryy	4.ryy	4.dd\	qui	2.r	.	2.r	.
!	!	!	!LO:MO:mod=8f(	!	!LO:MO:mod=24ddLL(	!	!	!	!	!	!	!	!	!
8B-\	.	.	8f/	.	24dd\LL	.	.	.	.	.	.	.	.	.
!	!	!	!	!	!LO:MO:mod=24ee	!	!	!	!	!	!	!	!	!
.	.	.	.	.	(24ee\	.	.	.	.	.	.	.	.	.
.	.	.	.	.	24ff\JJ)	.	.	.	.	.	.	.	.	.
!	!	!	!LO:MO:mod=8gJ)	!	!	!	!	!	!	!	!	!	!	!
8B-\J	.	.	8g/J	.	(24gg\LL	.	.	.	.	.	.	.	.	.
.	.	.	.	.	24aa\	.	.	.	.	.	.	.	.	.
.	.	.	.	.	24bb-\JJ)	.	.	.	.	.	.	.	.	.
=81	=81	=81	=81	=81	=81	=81	=81	=81	=81	=81	=81	=81	=81	=81
!	!	!	!LO:MO:mod=8gL(	!	!	!	!	!	!	!	!	!	!	!
8A\L	6	.	8g/L	.	(24cc\LL	.	4.ryy	4.ryy	8cc\L	ve-	.	.	.	.
.	.	.	.	.	24dd\	.	.	.	.	.	.	.	.	.
.	.	.	.	.	24ee\JJ)	.	.	.	.	.	.	.	.	.
8A\	6	.	8f/	.	(24ff\LL	.	.	.	8ff\	.	.	.	.	.
.	.	.	.	.	24gg\	.	.	.	.	.	.	.	.	.
.	.	.	.	.	24aa\JJ)	.	.	.	.	.	.	.	.	.
!	!	!	!LO:MO:mod=8eJ)	!	!	!	!	!	!	!	!	!	!	!
8G\J	.	.	8e/J	.	8b-/	.	.	.	8b-\J	.	.	.	.	.
=82	=82	=82	=82	=82	=82	=82	=82	=82	=82	=82	=82	=82	=82	=82
!LO:TX:a:t=P:problem=mixed beam	!	!	!	!	!	!	!	!	!	!	!	!	!	!
8F\L	.	.	8f/	.	(24a/LL	.	4.ryy	4.ryy	(24a\LL	.	4.r	.	4.r	.
.	.	.	.	.	24g/	.	.	.	24g\	.	.	.	.	.
.	.	.	.	.	24f/JJ)	.	.	.	24f\JJ)	.	.	.	.	.
8c\	.	.	4e/t	.	4g/T	.	.	.	4g/	.	.	.	.	.
8C/J	.	.	.	.	.	.	.	.	.	.	.	.	.	.
=83	=83	=83	=83	=83	=83	=83	=83	=83	=83	=83	=83	=83	=83	=83
!LO:TX:a:t=P:problem=mixed beam	!	!	!LO:MO:mod=16f'LL(	!	!LO:MO:mod=16f'LL(	!	!	!	!	!	!	!	!	!
16FF/LL	3_	.	16f'/LL	.	16f/LL	.	4.ryy	4.ryy	8f/	-nit	16r	.	16r	.
!	!	!	!	!	!LO:MO:mod=16a'	!	!	!	!	!	!	!	!	!
16F\	.	.	16f'/	.	(16a'/	.	.	.	.	.	16f\LL	.	16a\LL	.
16E\	X	.	16f'/	.	16a'/	.	.	.	8r	.	16f\	.	16a\	.
16D\	.	.	16f'/	.	16a'/	.	.	.	.	.	16f\	.	16a\	.
16C\	.	.	16f'/	.	16a'/	.	.	.	8a\	in	16f\	.	16a\	.
!	!	!	!LO:MO:mod=16f'JJ)	!	!	!	!	!	!	!	!	!	!	!
16BB-\JJ	.	.	16f'/JJ	.	16a'/JJ)	.	.	.	.	.	16f\JJ	.	16a\JJ	.
!	!	!	!	!	!	!	!	!	!	!	!LO:LB:g=original	!	!	!
=84	=84	=84	=84	=84	=84	=84	=84	=84	=84	=84	=84	=84	=84	=84
8AA/L	6	.	8.f/L	.	8.a/L	.	4.ryy	4.ryy	8.a\	no-	8.f\L	.	8.a\L	.
8GG/	6	.	.	.	.	.	.	.	.	.	.	.	.	.
.	.	.	16g/K	.	16b-/K	.	.	.	16b-\	-mi-	16g\K	.	16b-\K	.
!	!	!	!	!	!	!	!	!	!LO:N:vis=4	!	!	!	!	!
8FF/J	.	.	8a/J	.	8cc/J	.	.	.	8cc\	-ne	8a\J	.	8cc\J	.
=85	=85	=85	=85	=85	=85	=85	=85	=85	=85	=85	=85	=85	=85	=85
!	!	!	!	!	!	!	!	!	!LO:MO:mod=24ddLL(	!	!	!	!	!
8BB-/L	6	.	(24b-/LL	.	(24dd\LL	.	4.ryy	4.ryy	24dd\LL	Do-	4.r	.	4.r	.
!	!	!	!	!	!	!	!	!	!LO:MO:mod=24cc	!	!	!	!	!
.	.	.	24a/	.	24cc\	.	.	.	(24cc\	.	.	.	.	.
.	.	.	24g/JJ)	.	24b-\JJ)	.	.	.	24b-\JJ)	.	.	.	.	.
8C/	6 4	.	8f/L	.	8a/L	.	.	.	8a\	.	.	.	.	.
8CC/J	5 3	.	8e/J	.	8g/J	.	.	.	8g\	-mi-	.	.	.	.
=86	=86	=86	=86	=86	=86	=86	=86	=86	=86	=86	=86	=86	=86	=86
!LO:TX:a:t=P:problem=mixed beam	!	!	!LO:MO:mod=16f'LL(	!	!LO:MO:mod=16f'LL(	!	!	!	!	!	!	!	!	!
16FF/LL	3	.	16f'/LL	.	16f/LL	.	4.ryy	4.ryy	8a\	-ni	16r	.	16r	.
!	!	!	!	!	!LO:MO:mod=16a'	!	!	!	!	!	!	!	!	!
16F\	.	.	16f'/	.	(16a/	.	.	.	.	.	16f\LL	.	16a\LL	.
!	!	!	!	!	!LO:MO:mod=16a'	!	!	!	!	!	!	!	!	!
16E\	.	.	16f'/	.	16a/	.	.	.	8r	.	16f\	.	16a\	.
!	!	!	!	!	!LO:MO:mod=16a'	!	!	!	!	!	!	!	!	!
16D\	.	.	16f'/	.	16a/	.	.	.	.	.	16f\	.	16a\	.
!	!	!	!	!	!LO:MO:mod=16a'	!	!	!	!	!	!	!	!	!
16C\	.	.	16f'/	.	16a/	.	.	.	8a\	in	16f\	.	16a\	.
!	!	!	!LO:MO:mod=16f'JJ)	!	!LO:MO:mod=16a'JJ)	!	!	!	!	!	!	!	!	!
16BB-\JJ	.	.	16f'/JJ	.	16a/JJ)	.	.	.	.	.	16f\JJ	.	16a\JJ	.
=87	=87	=87	=87	=87	=87	=87	=87	=87	=87	=87	=87	=87	=87	=87
8AA/L	6	.	8.f/L	.	8.a/L	.	4.ryy	4.ryy	8.a\	no-	8.f\L	.	8.a\L	.
8GG/	6	.	.	.	.	.	.	.	.	.	.	.	.	.
.	.	.	16g/K	.	16b-/K	.	.	.	16b-\	-mi-	16g\K	.	16b-\K	.
8FF/J	.	.	8a/J	.	8cc/J	.	.	.	8cc\	-ne	8a\J	.	8cc\J	.
!	!	!	!	!	!LO:LB:g=original	!	!	!	!	!	!	!	!	!
=88	=88	=88	=88	=88	=88	=88	=88	=88	=88	=88	=88	=88	=88	=88
!	!	!	!	!	!	!	!	!	!LO:MO:mod=24ddLL(	!	!LO:N:vis=0	!	!LO:N:vis=0	!
8C/L	.	.	(24b-/LL	.	(24dd\LL	.	4.ryy	4.ryy	24dd\LL	Do-	2.r	.	2.r	.
!	!	!	!	!	!	!	!	!	!LO:MO:mod=24cc	!	!	!	!	!
.	.	.	24a/	.	24cc\	.	.	.	(24cc\	.	.	.	.	.
.	.	.	24g/JJ)	.	24b-\JJ)	.	.	.	24b-\JJ)	.	.	.	.	.
!	!	!	!	!	!	!	!	!	!LO:LB:g=original	!	!	!	!	!
8C/	6 4	.	8f/L	.	8a/L	.	.	.	8a\	.	.	.	.	.
8CC/J	5 3	.	8e/J	.	8g/J	.	.	.	16.g/	.	.	.	.	.
.	.	.	.	.	.	.	.	.	32f/	-mi-	.	.	.	.
=89	=89	=89	=89	=89	=89	=89	=89	=89	=89	=89	=89	=89	=89	=89
!LO:MO:mod=4.FF;	!	!	!	!	!LO:MO:mod=16.fL	!	!	!	!	!	!	!	!	!
4.FF/	.	.	16.f/LL	.	8.f/L	.	4.ryy	4.ryy	4f/	-ni	.	.	.	.
!	!	!	!	!	!LO:MO:null:mod=32cJ	!	!	!	!	!	!	!	!	!
.	.	.	32c/JJk	.	.	.	.	.	.	.	.	.	.	.
!	!	!	!LO:MO:null:mod=8qqB-@	!	!LO:MO:null:mod=8qqB-	!	!	!	!	!	!	!	!	!
.	.	.	.	.	.	.	.	.	.	.	.	.	.	.
!	!	!	!	!	!LO:MO:null:mod=4A;	!	!	!	!	!	!	!	!	!
.	.	.	4A;/	.	.	.	.	.	.	.	.	.	.	.
!	!	!	!	!	!LO:MO:mod=.	!	!	!	!	!	!	!	!	!
.	.	.	.	.	16c/Jk	.	.	.	.	.	.	.	.	.
!	!	!	!	!	!LO:MO:mod=.	!	!	!	!	!	!	!	!	!
.	.	.	.	.	8qqB-/	.	.	.	.	.	.	.	.	.
!	!	!	!	!	!LO:N:vis=4	!	!	!	!	!	!	!	!	!
!	!	!	!	!	!LO:MO:mod=.	!	!	!	!	!	!	!	!	!
.	.	.	.	.	8A/	.	.	.	8r	.	.	.	.	.
!	!	!	!	!	!LO:MO:mod==90	!	!	!	!	!	!	!	!	!
=90	=90	=90	=90	=90	=90||	=90	=90	=90	=90	=90	=90	=90	=90	=90
!	!	!LO:DY:a:t=for.	!LO:TX:a:t=Da Ca\npo:mod=	!LO:DY:ed=brack	!LO:TX:a:i:t=Da Capo:mod=	!LO:DY:ed=brack	!LO:N:vis=00	!	!	!	!	!LO:DY:ed=brack	!	!LO:DY:ed=brack
!	!	!LO:MO:mod=.	!	!LO:MO:null:mod=f	!	!LO:MO:null:mod=f	!	!	!	!	!	!LO:MO:null:mod=f	!	!LO:MO:null:mod=f
16r	.	f	4.a/yy	.	4.cc\yy	.	4.ryy	4.ryy	1.r	.	4.a\	.	4.cc\	.
!	!	!LO:MO:null:mod=f	!	!	!	!	!	!	!	!	!	!	!	!
16FF/LL	.	.	.	.	.	.	.	.	.	.	.	.	.	.
16AA/	.	.	.	.	.	.	.	.	.	.	.	.	.	.
16C/	.	.	.	.	.	.	.	.	.	.	.	.	.	.
16F/	.	.	.	.	.	.	.	.	.	.	.	.	.	.
16A/JJ	.	.	.	.	.	.	.	.	.	.	.	.	.	.
!LO:LB:g=original	!	!	!	!	!	!	!	!	!	!	!	!	!	!
=91	=91	=91	=91	=91	=91	=91	=91	=91	=91	=91	=91	=91	=91	=91
!LO:TX:a:t=P:problem=mixed beam	!	!	!	!	!	!	!	!	!	!	!	!	!	!
.	.	.	.	.	8qqcc/yy	.	.	.	.	.	.	.	.	.
!	!	!	!	!	!	!	!	!	!	!	!LO:MO:mod=4.gT	!	!	!
16c\LL	7	.	4.g/yy	.	4.b-\yy	.	4.ryy	4.ryy	.	.	4.g\	.	4.b-\T	.
16CC/	.	.	.	.	.	.	.	.	.	.	.	.	.	.
16EE/	.	.	.	.	.	.	.	.	.	.	.	.	.	.
16GG/	.	.	.	.	.	.	.	.	.	.	.	.	.	.
16C/	.	.	.	.	.	.	.	.	.	.	.	.	.	.
16E/JJ	.	.	.	.	.	.	.	.	.	.	.	.	.	.
=92	=92	=92	=92	=92	=92	=92	=92	=92	=92	=92	=92	=92	=92	=92
!	!	!	!LO:TX:a:t=P:problem=mixed beam	!	!	!	!	!	!	!	!	!	!	!
!	!	!	!LO:MO:mod=8fL(	!	!	!	!	!	!	!	!	!	!	!
4F\	3	.	8f/Lyy	.	(8a\Lyy	.	4.ryy	4.ryy	.	.	8f\	.	8a\	.
!	!	!	!LO:MO:mod=8dd	!	!	!	!	!	!	!	!	!	!	!
.	.	.	(8dd\yy	.	8ff\yy	.	.	.	.	.	8r	.	8r	.
8r	.	.	8cc\J)yy	.	8ee\J)yy	.	.	.	.	.	8r	.	8r	.
=93	=93	=93	=93	=93	=93	=93	=93	=93	=93	=93	=93	=93	=93	=93
!LO:TX:a:t=P:problem=mixed beam	!	!	!	!	!LO:MO:mod=8dd(	!	!	!	!	!	!	!	!	!
8B-\L	.	.	(8b-/yy	.	8dd\yy	.	4.ryy	4.ryy	.	.	4.r	.	4.r	.
.	.	.	.	.	8qqcc/yy	.	.	.	.	.	.	.	.	.
!	!	!	!	!	!LO:MO:mod=4b-)	!	!	!	!	!	!	!	!	!
8c\	6 4	.	4g/)yy	.	4b-\yy	.	.	.	.	.	.	.	.	.
8C/J	5 3	.	.	.	.	.	.	.	.	.	.	.	.	.
=94	=94	=94	=94	=94	=94	=94	=94	=94	=94	=94	=94	=94	=94	=94
*	*	*	*Xtuplet	*	*Xtuplet	*	*	*	*	*	*	*	*	*
!LO:TX:a:t=P:problem=mixed beam	!	!	!	!	!LO:MO:mod=(24aLL	!	!	!	!LO:N:vis=00	!	!	!	!	!
16F\LL	3_	.	(24f/LLyy	.	24a\LLyy	.	4.ryy	4.ryy	1.r	.	16r	.	16r	.
!	!	!	!	!	!LO:MO:mod=24b-	!	!	!	!	!	!	!	!	!
.	.	.	24g/yy	.	(24b-\yy	.	.	.	.	.	.	.	.	.
16FF/	.	.	.	.	.	.	.	.	.	.	16f\	.	16a\	.
.	.	.	24a/JJ)yy	.	24cc\JJ)yy	.	.	.	.	.	.	.	.	.
!	!	!	!	!	!	!	!	!	!	!	!LO:MO:mod=16aLL(	!	!	!
16AA/	X	.	4a/yy	.	4cc\yy	.	.	.	.	.	16a\LL	.	(16cc\LL	.
!	!	!	!	!	!	!	!	!	!	!	!LO:MO:mod=16f	!	!	!
16C/	.	.	.	.	.	.	.	.	.	.	(16f\	.	16a\	.
!	!	!	!	!	!	!	!	!	!	!	!	!	!LO:MO:mod=16cc	!
16F/	.	.	.	.	.	.	.	.	.	.	16a\	.	16cc\)	.
!	!	!	!	!	!	!	!	!	!	!	!	!	!LO:MO:mod=16aJJ)	!
16A/JJ	.	.	.	.	.	.	.	.	.	.	16f\JJ)	.	16a\JJ	.
=95	=95	=95	=95	=95	=95	=95	=95	=95	=95	=95	=95	=95	=95	=95
!LO:TX:a:t=P:problem=mixed beam	!	!	!	!	!	!	!	!	!	!	!	!	!	!
16c\LL	7_	.	(24e/LLyy	.	(24g/LLyy	.	4.ryy	4.ryy	.	.	16r	.	16r	.
.	.	.	24f/yy	.	24a/yy	.	.	.	.	.	.	.	.	.
16CC/	.	.	.	.	.	.	.	.	.	.	16c/	.	16g\	.
.	.	.	24g/JJ)yy	.	24b-/JJ)yy	.	.	.	.	.	.	.	.	.
!	!	!	!	!	!	!	!	!	!	!	!LO:MO:mod=16gLL(	!	!LO:MO:mod=16b-LL(	!
16EE/	X	.	4g/yy	.	4b-/Tyy	.	.	.	.	.	16g\LL	.	16b-\LL	.
!	!	!	!	!	!	!	!	!	!	!	!LO:MO:mod=16c	!	!LO:MO:mod=16g	!
16GG/	.	.	.	.	.	.	.	.	.	.	(16c\	.	(16g\	.
16C/	.	.	.	.	.	.	.	.	.	.	16g\	.	16b-\	.
16E/JJ	.	.	.	.	.	.	.	.	.	.	16c\JJ)	.	16g\JJ)	.
!	!	!	!	!	!	!	!	!	!	!	!	!	!LO:LB:g=original	!
=96	=96	=96	=96	=96	=96	=96	=96	=96	=96	=96	=96	=96	=96	=96
!LO:TX:a:t=P:problem=mixed beam	!	!	!	!	!	!	!	!	!	!	!	!	!	!
8F\L	.	.	16.f/LLyy	.	16.a\LLyy	.	4.ryy	4.ryy	.	.	8f\	.	8a\	.
.	.	.	32a/JJkyy	.	32ff\JJkyy	.	.	.	.	.	.	.	.	.
!	!	!	!	!	!LO:MO:mod=24ff(LL	!	!	!	!	!	!	!	!	!
8r	.	.	(24a/LLyy	.	24ff\LLyy	.	.	.	.	.	8r	.	8r	.
!	!	!	!	!	!LO:MO:mod=24ee	!	!	!	!	!	!	!	!	!
.	.	.	24g/yy	.	(24ee\yy	.	.	.	.	.	.	.	.	.
.	.	.	24b-/JJ)yy	.	24dd\JJ)yy	.	.	.	.	.	.	.	.	.
!	!	!	!	!	!LO:MO:mod=24ccLL(	!	!	!	!	!	!	!	!	!
8FF/J	.	.	(24a/LLyy	.	24cc\LLyy	.	.	.	.	.	8f\	.	8a\	.
!	!	!	!	!	!LO:MO:mod=24b-	!	!	!	!	!	!	!	!	!
.	.	.	24g/yy	.	(24b-\yy	.	.	.	.	.	.	.	.	.
.	.	.	24f/JJ)yy	.	24a\JJ)yy	.	.	.	.	.	.	.	.	.
!	!	!	!	!	!	!	!	!	!	!	!LO:LB:g=original	!	!	!
=97	=97	=97	=97	=97	=97	=97	=97	=97	=97	=97	=97L	=97	=97	=97
!LO:TX:a:t=P:problem=mixed beam	!	!	!	!	!	!	!	!	!	!	!	!	!	!
.	.	.	.	.	8qqb-/yy	.	.	.	.	.	.	.	.	.
16C/LL	6 4	.	8f/Lyy	.	8a/Lyy	.	4.ryy	4.ryy	.	.	8f\L	.	8a\L	.
16c\	- 3	.	.	.	.	.	.	.	.	.	.	.	.	.
16B-\	.	.	8e/Jyy	.	8g/Jyy	.	.	.	.	.	8c\J	.	8g\J	.
16A\	.	.	.	.	.	.	.	.	.	.	.	.	.	.
16G\	.	.	8ryy	.	8ryy	.	.	.	.	.	8r	.	8r	.
16G\JJ	.	.	.	.	.	.	.	.	.	.	.	.	.	.
=98	=98	=98	=98	=98	=98	=98	=98	=98	=98	=98	=98	=98	=98	=98
!	!	!	!	!	!	!	!	!	!LO:N:vis=00	!	!LO:N:vis=00	!	!LO:N:vis=00	!
8F#X\L	-7	.	8a/Lyy	.	16ryy	.	4.ryy	4.ryy	1.r	.	1.r	.	1.r	.
.	.	.	.	.	16ee-X\yy	.	.	.	.	.	.	.	.	.
8G\	3	.	8b-/yy	.	(24dd\LLyy	.	.	.	.	.	.	.	.	.
.	.	.	.	.	24cc\yy	.	.	.	.	.	.	.	.	.
.	.	.	.	.	24b-\JJ)yy	.	.	.	.	.	.	.	.	.
8A\J	6\	.	8cc/Jyy	.	(24a/LLyy	.	.	.	.	.	.	.	.	.
.	.	.	.	.	24g/yy	.	.	.	.	.	.	.	.	.
.	.	.	.	.	24f#X/JJ)yy	.	.	.	.	.	.	.	.	.
=99	=99	=99	=99	=99	=99	=99	=99	=99	=99	=99	=99	=99	=99	=99
!	!	!LO:DY:ed=brack	!	!	!	!	!	!	!	!	!	!	!	!
!	!	!LO:MO:null:mod=p	!	!LO:DY:a:t=p.	!LO:TX:a:t=P:problem=mixed beam	!LO:MO:null:mod=p	!	!	!	!	!	!	!	!
8B-\L	6	.	(8dd\Lyy	pyy	16.g/LLyy	.	4.ryy	4.ryy	.	.	.	.	.	.
.	.	.	.	.	8qqee/yy	.	.	.	.	.	.	.	.	.
.	.	.	.	.	32ff#X\JJkyy	.	.	.	.	.	.	.	.	.
!	!	!	!	!	!	!LO:DY:a:rj:t=p.	!	!	!	!	!	!	!	!
!	!	!	!	!	!LO:MO:mod=8ff#L(	!LO:MO:mod=.	!	!	!	!	!	!	!	!
8A\	6	.	8cc\yy	.	8ff#\Lyy	pyy	.	.	.	.	.	.	.	.
!	!	!	!	!	!LO:MO:mod=8ggJ)	!	!	!	!	!	!	!	!	!
8G\J	.	.	8b-\J)yy	.	8gg\Jyy	.	.	.	.	.	.	.	.	.
=100	=100	=100	=100	=100	=100	=100	=100	=100	=100	=100	=100	=100	=100	=100
!	!	!LO:DY:ed=brack	!	!	!	!	!	!	!	!	!	!	!	!
!	!	!LO:MO:null:mod=f	!	!LO:DY:a:t=f.	!	!	!	!	!	!	!	!	!	!
8E\L	7	.	8g/Lyy	fyy	16ryy	.	4.ryy	4.ryy	.	.	.	.	.	.
!	!	!	!	!	!	!LO:DY:ed=brack	!	!	!	!	!	!	!	!
!	!	!	!	!	!	!LO:MO:null:mod=f	!	!	!	!	!	!	!	!
.	.	.	.	.	16dd\yy	.	.	.	.	.	.	.	.	.
8Fn\	5	.	8a/yy	.	24cc\LLyy	.	.	.	.	.	.	.	.	.
.	.	.	.	.	(24b-\yy	.	.	.	.	.	.	.	.	.
.	.	.	.	.	24a\JJ)yy	.	.	.	.	.	.	.	.	.
8G\J	6	.	8b-/Jyy	.	(24g/LLyy	.	.	.	.	.	.	.	.	.
.	.	.	.	.	24f/yy	.	.	.	.	.	.	.	.	.
.	.	.	.	.	24en/JJ)yy	.	.	.	.	.	.	.	.	.
!LO:LB:g=original	!	!	!	!	!	!	!	!	!	!	!	!	!	!
=101	=101	=101	=101	=101	=101	=101	=101	=101	=101	=101	=101	=101	=101	=101
!	!	!LO:DY:ed=brack	!	!	!	!LO:DY:ed=brack	!	!	!	!	!	!	!	!
!	!	!LO:MO:null:mod=p	!	!LO:DY:a	!LO:TX:a:t=P:problem=mixed beam	!LO:MO:null:mod=p	!	!	!	!	!	!	!	!
8A\L	6	.	(8cc\Lyy	pyy	16.f/LLyy	.	4.ryy	4.ryy	.	.	.	.	.	.
.	.	.	.	.	32ee\JJkyy	.	.	.	.	.	.	.	.	.
8G\	6	.	8b-\yy	.	(8ee\Lyy	.	.	.	.	.	.	.	.	.
8F\J	.	.	8a\J)yy	.	8ff\J)yy	.	.	.	.	.	.	.	.	.
=102	=102	=102	=102	=102	=102	=102	=102	=102	=102	=102	=102	=102	=102	=102
*	*	*	*	*	*	*	*	*	*	*	*Xtuplet	*	*Xuplet	*
!	!	!	!	!LO:DY:ed=brack	!	!LO:DY:a	!	!	!LO:N:vis=00	!	!	!	!	!
!	!	!	!LO:MO:mod=24eLL(	!LO:MO:null:mod=f	!LO:MO:mod=24gLL(	!LO:MO:mod=f	!	!	!	!	!LO:MO:mod=24cLL(	!	!	!
16r	.	.	24e/LLyy	.	24g/LLyy	pyy	4.ryy	4.ryy	1.r	.	24c\LL	.	24gLL(	.
!	!	!	!LO:MO:mod=24f	!	!	!	!	!	!	!	!LO:MO:mod=24f	!	!	!
.	.	.	(24f/yy	.	24a/yy	.	.	.	.	.	(24f\	.	24a	.
!	!	!LO:DY:ed=brack	!	!	!	!	!	!	!	!	!	!	!	!
!	!	!LO:MO:null:mod=f	!	!	!	!	!	!	!	!	!	!	!	!
16CC/LL	7_	.	.	.	.	.	.	.	.	.	.	.	.	.
!	!	!	!	!	!LO:MO:mod=24b-JJ)	!	!	!	!	!	!	!	!	!
.	.	.	24g/JJ)yy	.	24b-/JJyy	.	.	.	.	.	24g\JJ)	.	24b-JJ)	.
16EE/	.	.	4g/yy	.	4b-/Tyy	.	.	.	.	.	4g\T	.	4b-T	.
16GG/	X	.	.	.	.	.	.	.	.	.	.	.	.	.
16C/	.	.	.	.	.	.	.	.	.	.	.	.	.	.
16E/JJ	.	.	.	.	.	.	.	.	.	.	.	.	.	.
=103	=103	=103	=103	=103	=103	=103	=103	=103	=103	=103	=103	=103	=103	=103
!	!	!LO:DY:ed=brack	!	!	!	!LO:DY:ed=brack	!	!	!	!	!	!LO:DY:ed=brack	!	!LO:DY:ed=brack
!	!	!LO:MO:null:mod=p	!	!LO:DY:a:rj:t=p.	!LO:TX:a:t=P:problem=mixed beam	!LO:MO:null:mod=p	!	!	!	!	!	!LO:MO:null:mod=p	!	!LO:MO:null:mod=p
4F\	3	.	16f/LLyy	pyy	16a/LLyy	.	4.ryy	4.ryy	.	.	8f\	.	8a\	.
.	.	.	16cc/yy	.	16aa\yy	.	.	.	.	.	.	.	.	.
!	!	!	!	!	!LO:MO:mod=16gg(	!	!	!	!	!	!	!	!	!
.	.	.	(16b-/yy	.	16gg\yy	.	.	.	.	.	8r	.	8r	.
!	!	!	!	!	!LO:MO:mod=16ff)	!	!	!	!	!	!	!	!	!
.	.	.	16a/)yy	.	16ff\yy	.	.	.	.	.	.	.	.	.
!	!	!	!LO:MO:mod=16g(	!	!LO:MO:mod=16ee(	!	!	!	!	!	!	!	!	!
8r	.	.	16g/yy	.	16ee\yy	.	.	.	.	.	8r	.	8r	.
!	!	!	!LO:MO:mod=16aJJ)	!	!LO:MO:mod=16ffJJ)	!	!	!	!	!	!	!	!	!
.	.	.	16a/JJyy	.	16ff\JJyy	.	.	.	.	.	.	.	.	.
=104	=104	=104	=104	=104	=104	=104	=104	=104	=104	=104	=104	=104	=104	=104
!	!	!	!	!	!	!	!	!	!	!	!	!LO:DY:ed=brack	!	!LO:DY:ed=brack
!	!	!	!LO:MO:mod=16b-LL(	!LO:DY:a:rj:t=f.	!LO:MO:mod=24ggLL(	!LO:DY:a:rj:t=f.	!	!	!	!	!	!LO:MO:null:mod=f	!	!LO:MO:null:mod=f
16r	.	.	16b-/LLyy	fyy	24gg\LLyy	fyy	4.ryy	4.ryy	.	.	8c/	.	8g\	.
.	.	.	.	.	24ee\yy	.	.	.	.	.	.	.	.	.
!	!	!LO:DY:ed=brack	!	!	!	!	!	!	!	!	!	!	!	!
!	!	!LO:MO:null:mod=f	!LO:MO:mod=16g)	!	!	!	!	!	!	!	!	!	!	!
16C\LL	7 3	.	16g/yy	.	.	.	.	.	.	.	.	.	.	.
!	!	!	!	!	!LO:MO:mod=24b-JJ)	!	!	!	!	!	!	!	!	!
.	.	.	.	.	24b-\JJyy	.	.	.	.	.	.	.	.	.
16D\	x 3	.	(16f/yy	.	4b-T\yy	.	.	.	.	.	8r	.	8r	.
16C\	x 3	.	16g/)yy	.	.	.	.	.	.	.	.	.	.	.
!	!	!	!LO:MO:mod=16f(	!	!	!	!	!	!	!	!	!	!	!
16D\	7 3	.	16f/yy	.	.	.	.	.	.	.	8r	.	8r	.
!	!	!	!LO:MO:mod=16gJJ)	!	!	!	!	!	!	!	!	!	!	!
16E\JJ	x 3	.	16g/JJyy	.	.	.	.	.	.	.	.	.	.	.
=105	=105	=105	=105	=105	=105	=105	=105	=105	=105	=105	=105	=105	=105	=105
!	!	!LO:DY:ed=brack	!	!LO:DY:ed=brack	!	!	!	!	!	!	!	!LO:DY:ed=brack	!	!LO:DY:ed=brack
!	!	!LO:MO:null:mod=p	!	!LO:MO:null:mod=p	!	!LO:DY:a:rj:t=p.	!	!	!	!	!	!LO:MO:null:mod=p	!	!LO:MO:null:mod=p
4F\	.	.	16c/LLyy	.	16a/LLyy	pyy	4.ryy	4.ryy	.	.	8f\	.	8a\	.
!	!	!	!LO:MO:mod=16c	!	!	!	!	!	!	!	!	!	!	!
.	.	.	(16c/yy	.	16a/yy	.	.	.	.	.	.	.	.	.
!	!	!	!LO:MO:mod=16B-(	!	!	!	!	!	!	!	!	!	!	!
.	.	.	16B-/yy	.	(16g/yy	.	.	.	.	.	8r	.	8r	.
.	.	.	16A/)yy	.	16f/)yy	.	.	.	.	.	.	.	.	.
!	!	!	!LO:MO:mod=16G(	!	!LO:MO:mod=16e(	!	!	!	!	!	!	!	!	!
8r	.	.	16G/yy	.	16e/yy	.	.	.	.	.	8r	.	8r	.
!	!	!	!LO:MO:mod=16AJJ)	!	!LO:MO:mod=16fJJ)	!	!	!	!	!	!	!	!	!
.	.	.	16A/JJyy	.	16f/JJyy	.	.	.	.	.	.	.	.	.
=106	=106	=106	=106	=106	=106	=106	=106	=106	=106	=106	=106	=106	=106	=106
!	!	!LO:DY:ed=brack	!	!	!	!	!	!	!	!	!	!LO:DY:ed=brack	!	!LO:DY:ed=brack
!	!	!LO:MO:null:mod=f	!	!LO:DY:a:rj	!	!LO:DY:a:rj:t=f.	!	!	!LO:N:vis=00	!	!	!LO:MO:null:mod=f	!	!LO:MO:null:mod=f
8B-\L	.	.	8dd\yy	fyy	8dd\yy	fyy	4.ryy	4.ryy	1.r	.	8f\	.	8f\	.
!	!	!	!	!	!LO:MO:mod=24bb-(LL	!	!	!	!	!	!	!	!	!
8B-\	.	.	(24bb-\LLyy	.	24bb-\LLyy	.	.	.	.	.	8r	.	8r	.
.	.	.	24aa\yy	.	24aa\yy	.	.	.	.	.	.	.	.	.
!	!	!	!	!	!LO:MO:mod=24ggJJ)	!	!	!	!	!	!	!	!	!
.	.	.	24gg\JJ)yy	.	24gg\JJyy	.	.	.	.	.	.	.	.	.
!	!	!	!	!	!LO:MO:mod=24ffLL(	!	!	!	!	!	!	!	!	!
8B-\J	.	.	(24ff\LLyy	.	24ff\LLyy	.	.	.	.	.	8r	.	8r	.
!	!	!	!	!	!LO:MO:mod=24ee	!	!	!	!	!	!	!	!	!
.	.	.	24ee\yy	.	(24ee\yy	.	.	.	.	.	.	.	.	.
.	.	.	24dd\JJ)yy	.	24dd\JJ)yy	.	.	.	.	.	.	.	.	.
=107	=107	=107	=107	=107	=107	=107	=107	=107	=107	=107	=107	=107	=107	=107
!	!	!	!	!	!LO:MO:mod=24ccLL(	!	!	!	!	!	!	!	!	!
8A\L	6	.	(24cc\LLyy	.	24cc\LLyy	.	4.ryy	4.ryy	.	.	8r	.	8r	.
!	!	!	!	!	!LO:MO:mod=24dd	!	!	!	!	!	!	!	!	!
.	.	.	24dd\yy	.	(24dd\yy	.	.	.	.	.	.	.	.	.
.	.	.	24ee\JJ)yy	.	24ee\JJ)yy	.	.	.	.	.	.	.	.	.
!	!	!	!	!	!LO:MO:mod=24ffLL(	!	!	!	!	!	!	!	!	!
8A\	6	.	(24ff\LLyy	.	24ff\LLyy	.	.	.	.	.	8r	.	8r	.
!	!	!	!	!	!LO:MO:mod=24gg	!	!	!	!	!	!	!	!	!
.	.	.	24gg\yy	.	(24gg\yy	.	.	.	.	.	.	.	.	.
.	.	.	24aa\JJ)yy	.	24aa\JJ)yy	.	.	.	.	.	.	.	.	.
.	.	.	.	.	8qqcc/yy	.	.	.	.	.	.	.	.	.
8G\J	.	.	8b-\yy	.	8b-\yy	.	.	.	.	.	8g\	.	8b-\	.
=108	=108	=108	=108	=108	=108	=108	=108	=108	=108	=108	=108	=108	=108	=108
!LO:TX:a:t=P:problem=mixed beam	!	!	!	!	!	!	!	!	!	!	!LO:MO:mod=8f	!	!	!
8F\L	.	.	(24a/LLyy	.	(24a/LLyy	.	4.ryy	4.ryy	.	.	8f\L	.	8a\	.
.	.	.	24g/yy	.	24g/yy	.	.	.	.	.	.	.	.	.
.	.	.	24f/JJ)yy	.	24f/JJ)yy	.	.	.	.	.	.	.	.	.
!	!	!	!	!	!	!	!	!	!	!	!LO:MO:mod=4c	!	!	!
8c\	4	.	4g/yy	.	4gT/yy	.	.	.	.	.	8c/	.	4g\T	.
!	!	!	!	!	!	!	!	!	!	!	!LO:MO:mod=.	!	!	!
8C/J	3	.	.	.	.	.	.	.	.	.	8cJ/	.	.	.
=109	=109	=109	=109	=109	=109	=109	=109	=109	=109	=109	=109	=109	=109	=109
!	!	!	!LO:TX:a:t=P:problem=mixed beam	!	!LO:TX:a:t=P:problem=mixed beam	!	!	!	!	!	!	!	!	!
!	!	!	!LO:MO:mod=16.fLL	!	!	!	!	!	!	!	!	!	!	!
4F\	.	.	16f/LLyy	.	16.f/LLyy	.	4.ryy	4.ryy	.	.	8A/	.	8f\	.
!	!	!	!LO:MO:mod=.	!	!	!	!	!	!	!	!	!	!	!
.	.	.	16aa\JJyy	.	.	.	.	.	.	.	.	.	.	.
!	!	!	!LO:MO:null:mod=32aaJJ)	!	!	!	!	!	!	!	!	!	!	!
.	.	.	.	.	32aa\JJkyy	.	.	.	.	.	.	.	.	.
!	!	!	!LO:MO:mod=24aaLL(	!	!LO:MO:mod=24aaLL(	!	!	!	!	!	!	!	!	!
.	.	.	24aa\LLyy	.	24aa\LLyy	.	.	.	.	.	4r	.	8r	.
!	!	!	!	!	!LO:MO:mod=24gg	!	!	!	!	!	!	!	!	!
.	.	.	24gg\yy	.	(24gg\yy	.	.	.	.	.	.	.	.	.
!	!	!	!LO:MO:mod=24ffJJ)	!	!	!	!	!	!	!	!	!	!	!
.	.	.	24ff\JJyy	.	24ff\JJ)yy	.	.	.	.	.	.	.	.	.
!	!	!	!LO:MO:mod=24eeLL(	!	!LO:MO:mod=24eeLL(	!	!	!	!	!	!	!	!	!
8r	.	.	24ee\LLyy	.	24ee\LLyy	.	.	.	.	.	.	.	8r	.
!	!	!	!	!	!LO:MO:mod=24dd	!	!	!	!	!	!	!	!	!
.	.	.	24dd\yy	.	(24dd\yy	.	.	.	.	.	.	.	.	.
!	!	!	!LO:MO:mod=24ccJJ)	!	!	!	!	!	!	!	!	!	!	!
.	.	.	24cc\JJyy	.	24cc\JJ)yy	.	.	.	.	.	.	.	.	.
=110	=110	=110	=110	=110	=110	=110	=110	=110	=110	=110	=110	=110	=110	=110
.	.	.	16qqb-/LLyy	.	16qqb-/LLyy	.	.	.	.	.	.	.	.	.
!LO:TX:a:t=P:problem=mixed beam	!	!	!	!	!	!	!	!	!	!	!	!	!	!
.	.	.	16qqcc/JJyy	.	16qqcc/JJyy	.	.	.	.	.	.	.	.	.
!	!	!	!	!	!	!	!	!	!LO:N:vis=00	!	!	!	!	!
8B-\L	.	.	8dd\yy	.	8dd\yy	.	4.ryy	4.ryy	1.r	.	8b-\	.	8dd\	.
.	.	.	8qqcc/yy	.	8qqcc/yy	.	.	.	.	.	.	.	.	.
8c\	6 4	.	4b-\yy	.	4b-\yy	.	.	.	.	.	4g\T	.	4b-\T	.
8C\J	5 3	.	.	.	.	.	.	.	.	.	.	.	.	.
!	!	!	!	!	!	!	!	!	!	!	!	!	!LO:LB:g=original	!
=111	=111	=111	=111	=111	=111	=111	=111	=111	=111	=111	=111	=111	=111	=111
!	!	!	!LO:TX:a:t=P:problem=mixed beam	!	!LO:TX:a:t=P:problem=mixed beam	!	!	!	!	!	!	!	!	!
8D/	.	.	16.f/LLyy	.	16.f/LLyy	.	4.ryy	4.ryy	.	.	8f\	.	8a\	.
.	.	.	32aa\JJkyy	.	32aa\JJkyy	.	.	.	.	.	.	.	.	.
!	!	!	!LO:MO:mod=24aaLL(	!	!	!	!	!	!	!	!	!	!	!
8r	.	.	24aa\LLyy	.	(24aa\LLyy	.	.	.	.	.	8r	.	8r	.
!	!	!	!LO:MO:mod=24gg	!	!	!	!	!	!	!	!	!	!	!
.	.	.	(24gg\yy	.	24gg\yy	.	.	.	.	.	.	.	.	.
.	.	.	24ff\JJ)yy	.	24ff\JJ)yy	.	.	.	.	.	.	.	.	.
8r	.	.	(24ee\LLyy	.	(24ee\LLyy	.	.	.	.	.	8r	.	8r	.
.	.	.	24dd\yy	.	24dd\yy	.	.	.	.	.	.	.	.	.
.	.	.	24cc\JJ)yy	.	24cc\JJ)yy	.	.	.	.	.	.	.	.	.
!LO:LB:g=original	!	!	!	!	!	!	!	!	!	!	!	!	!	!
=112	=112	=112	=112	=112	=112	=112	=112	=112	=112	=112	=112	=112	=112	=112
8BB-/L	x 6	.	8b-/yy	.	8b-/yy	.	4.ryy	4.ryy	.	.	8g\L	.	8b-\	.
.	.	.	8qqa/yy	.	8qqa/yy	.	.	.	.	.	.	.	8qqa	.
!	!	!	!	!	!	!	!	!	!	!	!LO:MO:mod=8f(	!	!	!
8C/	6 4	.	4g/yy	.	4g/yy	.	.	.	.	.	8f\	.	4g\	.
!	!	!	!	!	!	!	!	!	!	!	!LO:MO:mod=8cJ)	!	!	!
8CC/J	5 3	.	.	.	.	.	.	.	.	.	8c\J	.	.	.
=113	=113	=113	=113	=113	=113	=113	=113	=113	=113	=113	=113	=113	=113	=113
!LO:TX:b:i:t=Osanna ut Suprae ||:mod=	!	!	!	!	!	!	!	!	!	!	!	!	!	!
4.FF;/	.	.	16.f/LLyy	.	16.f/LLyy	.	4.ryy	4.ryy	.	.	4A/	.	4f\	.
.	.	.	32c/JJkyy	.	32c/JJkyy	.	.	.	.	.	.	.	.	.
!	!	!	!LO:MO:null:mod=8qqB-@	!	!	!	!	!	!	!	!	!	!	!
.	.	.	.	.	8qqB-/yy	.	.	.	.	.	.	.	.	.
.	.	.	4A;/yy	.	4A;/yy	.	.	.	.	.	.	.	.	.
!	!	!	!	!	!	!	!	!	!	!	!LO:TX:b:i:t=Osanna Ut Supra ||:mod=	!	!LO:TX:b:i:t=Osanna Ut Supra:mod=	!
.	.	.	.	.	.	.	.	.	.	.	8r	.	8ryy	.
!!LO:TX:a:B:t= :mod=Osanna ut supra
==	==	==	==	==	==	==	==	==	==	==	==	==	==	==
*-	*-	*-	*-	*-	*-	*-	*-	*-	*-	*-	*-	*-	*-	*-
!!!system-decoration: [(s1,s2)][(s3,s4,s5)][(s6,s7)]s8
!!!RDF**kern: > = above
!!!RDF**kern: < = below
!!!RDF**kern: @ = marked note, color=grey
!!!ENC: Andrzej Kubiczek
!!!END: 2020-05-19
!!!EED: Leszek Kubiak
!!!EEV: 2020-10-06
!!!EED-revision: Andrzej Borzym
!!!EEV-revision: 2025-03-26
!!!ENC-modern: Andrzej Borzym
!!!END-modern: 2025-03-26
